M104 S235
M105
M109 S235
M82 ;absolute extrusion mode
;M201 X500.00 Y500.00 Z100.00 E5000.00 ;Setup machine max acceleration
;M203 X500.00 Y500.00 Z10.00 E50.00 ;Setup machine max feedrate
;M204 P500.00 R1000.00 T500.00 ;Setup Print/Retract/Travel acceleration
;M205 X8.00 Y8.00 Z0.40 E5.00 ;Setup Jerk
;M220 S100 ;Reset Feedrate
;M221 S100 ;Reset Flowrate
G28 ;Home
G92 E0 ;Reset Extruder
G1 Z2.0 F3000 ;Move Z Axis up
G1 X10.1 Y10 Z0.28 F5000.0 ;Move to start position
G1 X10.1 Y120.0 Z0.28 F1500.0 E15 ;Draw the first line
G1 X10.4 Y120.0 Z0.28 F5000.0 ;Move to side a little
G1 X10.4 Y20 Z0.28 F1500.0 E30 ;Draw the second line
G92 E0 ;Reset Extruder
G1 Z2.0 F3000 ;Move Z Axis up
G92 E0
G92 E0
G1 F1800 E-0.8
;LAYER_COUNT:3
;LAYER:0
M117 INDICATOR-Layer0
M117 DASHBOARD_LAYER_INDICATOR 1
M117 INDICATOR-Layer0
M117 DASHBOARD_LAYER_INDICATOR 1
M117 INDICATOR-Layer0
M117 DASHBOARD_LAYER_INDICATOR 1
M117 INDICATOR-Layer0
M117 DASHBOARD_LAYER_INDICATOR 1
M117 INDICATOR-Layer0
M117 DASHBOARD_LAYER_INDICATOR 1
M117 INDICATOR-Layer0
M117 DASHBOARD_LAYER_INDICATOR 1
M117 INDICATOR-Layer0
M117 DASHBOARD_LAYER_INDICATOR 1
M117 INDICATOR-Layer0
M117 DASHBOARD_LAYER_INDICATOR 1
M107
@Object Bed_Level_test_Speed_Print_Test.stl
G0 F3600 X105.786 Y71.074 Z0.1
;TYPE:WALL-INNER
G1 F1800 E0
G1 X106.602 Y71.18 E0.01368
G1 X107.417 Y71.074 E0.02735
G1 X108.175 Y70.761 E0.04099
G1 X108.828 Y70.263 E0.05465
G1 X109.328 Y69.614 E0.06827
G1 X109.645 Y68.859 E0.08189
G1 X109.751 Y68.046 E0.09552
G1 X109.645 Y67.233 E0.10916
G1 X109.328 Y66.478 E0.12278
G1 X108.828 Y65.829 E0.1364
G1 X108.175 Y65.331 E0.15006
G1 X107.417 Y65.018 E0.1637
G1 X106.602 Y64.912 E0.17736
G1 X105.786 Y65.018 E0.19105
G1 X105.028 Y65.331 E0.20469
G1 X104.375 Y65.829 E0.21834
G1 X103.875 Y66.478 E0.23197
G1 X103.558 Y67.233 E0.24558
G1 X103.452 Y68.046 E0.25922
G1 X103.558 Y68.859 E0.27285
G1 X103.875 Y69.614 E0.28647
G1 X104.375 Y70.263 E0.3001
G1 X105.028 Y70.761 E0.31375
G1 X105.786 Y71.074 E0.32739
G0 F3600 X105.761 Y71.17
G0 X107.409 Y71.03
G0 X107.434 Y71.126
G1 F1800 X106.602 Y71.234 E0.32939
G1 X105.769 Y71.126 E0.33139
G1 X104.995 Y70.806 E0.33341
G1 X104.328 Y70.298 E0.3355
G1 X103.82 Y69.641 E0.33773
G1 X103.498 Y68.869 E0.33995
G1 X103.39 Y68.046 E0.34213
G1 X103.498 Y67.223 E0.34431
G1 X103.82 Y66.451 E0.34654
G1 X104.328 Y65.794 E0.34876
G1 X104.995 Y65.286 E0.35085
G1 X105.769 Y64.966 E0.35287
G1 X106.602 Y64.858 E0.35488
G1 X107.434 Y64.966 E0.35687
G1 X108.208 Y65.286 E0.35889
G1 X108.875 Y65.794 E0.36098
G1 X109.383 Y66.451 E0.36321
G1 X109.705 Y67.223 E0.36543
G1 X109.813 Y68.046 E0.36762
G1 X109.705 Y68.869 E0.3698
G1 X109.383 Y69.641 E0.37202
G1 X108.875 Y70.298 E0.37425
G1 X108.208 Y70.806 E0.37634
G1 X107.434 Y71.126 E0.37836
G0 F3600 X107.536 Y71.516
;TYPE:WALL-OUTER
G1 F1800 X106.602 Y71.638 E0.39402
G1 X105.667 Y71.516 E0.4097
G1 X104.793 Y71.156 E0.42542
G1 X104.044 Y70.585 E0.44109
G1 X103.472 Y69.844 E0.45665
G1 X103.108 Y68.972 E0.47237
G1 X102.986 Y68.046 E0.4879
G1 X103.108 Y67.12 E0.50343
G1 X103.472 Y66.248 E0.51915
G1 X104.044 Y65.507 E0.53471
G1 X104.793 Y64.936 E0.55038
G1 X105.667 Y64.576 E0.56609
G1 X106.602 Y64.454 E0.58178
G1 X107.536 Y64.576 E0.59744
G1 X108.41 Y64.936 E0.61316
G1 X109.159 Y65.507 E0.62882
G1 X109.731 Y66.248 E0.64439
G1 X110.095 Y67.12 E0.6601
G1 X110.217 Y68.046 E0.67564
G1 X110.095 Y68.972 E0.69117
G1 X109.731 Y69.844 E0.70688
G1 X109.159 Y70.585 E0.72245
G1 X108.41 Y71.156 E0.73811
G1 X107.536 Y71.516 E0.75383
G0 F3600 X107.338 Y71.541
G0 X107.275 Y71.046
G0 X105.826 Y71.179
G0 X105.89 Y70.684
G1 F1800 X106.602 Y70.777 E0.76577
G1 X107.313 Y70.684 E0.7777
G1 X107.974 Y70.411 E0.78959
G1 X108.543 Y69.977 E0.80149
G1 X108.979 Y69.411 E0.81337
G1 X109.255 Y68.754 E0.82522
G1 X109.348 Y68.046 E0.8371
G1 X109.255 Y67.338 E0.84897
G1 X108.979 Y66.681 E0.86083
G1 X108.543 Y66.115 E0.87271
G1 X107.974 Y65.681 E0.88461
G1 X107.313 Y65.408 E0.8965
G1 X106.602 Y65.315 E0.90843
G1 X105.89 Y65.408 E0.92037
G1 X105.229 Y65.681 E0.93226
G1 X104.66 Y66.115 E0.94416
G1 X104.224 Y66.681 E0.95604
G1 X103.948 Y67.338 E0.96789
G1 X103.855 Y68.046 E0.97977
G1 X103.948 Y68.754 E0.99164
G1 X104.224 Y69.411 E1.00349
G1 X104.66 Y69.977 E1.01538
G1 X105.229 Y70.411 E1.02728
G1 X105.89 Y70.684 E1.03917
G0 F3600 X106.088 Y70.709
G1 F1800 E0.23917
G0 F3600 X106.024 Y71.205
G0 X105.287 Y72.295
G0 X81.755 Y98.551
G0 X80.74 Y99.337
G0 X78.78 Y103.904
G1 F1800 E1.03917
G0 F3600 X78.805 Y104
;TYPE:WALL-INNER
G1 F1800 X77.974 Y104.108 E1.05311
G1 X77.144 Y104 E1.06703
G1 X76.367 Y103.679 E1.08101
G1 X75.701 Y103.171 E1.09494
G1 X75.193 Y102.514 E1.10875
G1 X74.871 Y101.743 E1.12264
G1 X74.762 Y100.92 E1.13645
G1 X74.871 Y100.096 E1.15027
G1 X75.193 Y99.325 E1.16417
G1 X75.701 Y98.668 E1.17798
G1 X76.367 Y98.16 E1.19191
G1 X77.144 Y97.839 E1.20589
G1 X77.974 Y97.731 E1.21981
G1 X78.805 Y97.839 E1.23374
G1 X79.582 Y98.16 E1.24772
G1 X80.248 Y98.668 E1.26165
G1 X80.756 Y99.325 E1.27546
G1 X81.077 Y100.096 E1.28935
G1 X81.186 Y100.92 E1.30318
G1 X81.077 Y101.743 E1.31698
G1 X80.756 Y102.514 E1.33087
G1 X80.248 Y103.171 E1.34468
G1 X79.582 Y103.679 E1.35861
G1 X78.805 Y104 E1.37259
G0 F3600 X78.78 Y103.904
G0 X77.134 Y104.043
G0 X77.159 Y103.947
G1 F1800 X77.974 Y104.053 E1.37436
G1 X78.789 Y103.947 E1.37611
G1 X79.549 Y103.634 E1.37785
G1 X80.2 Y103.136 E1.37966
G1 X80.701 Y102.488 E1.38171
G1 X81.017 Y101.732 E1.38366
G1 X81.125 Y100.92 E1.38566
G1 X81.017 Y100.107 E1.38766
G1 X80.701 Y99.351 E1.38961
G1 X80.2 Y98.703 E1.39166
G1 X79.549 Y98.205 E1.39347
G1 X78.789 Y97.892 E1.39521
G1 X77.974 Y97.786 E1.39696
G1 X77.159 Y97.892 E1.39873
G1 X76.401 Y98.205 E1.40048
G1 X75.749 Y98.703 E1.40231
G1 X75.248 Y99.351 E1.40437
G1 X74.931 Y100.107 E1.40631
G1 X74.825 Y100.92 E1.40833
G1 X74.931 Y101.732 E1.41035
G1 X75.248 Y102.488 E1.41229
G1 X75.749 Y103.136 E1.41434
G1 X76.401 Y103.634 E1.41618
G1 X77.159 Y103.947 E1.41793
G0 F3600 X77.263 Y103.557
;TYPE:WALL-OUTER
G1 F1800 X77.974 Y103.65 E1.42985
G1 X78.685 Y103.557 E1.44178
G1 X79.348 Y103.284 E1.4537
G1 X79.915 Y102.85 E1.46557
G1 X80.352 Y102.285 E1.47745
G1 X80.627 Y101.627 E1.48931
G1 X80.721 Y100.92 E1.50117
G1 X80.627 Y100.212 E1.51305
G1 X80.352 Y99.554 E1.52491
G1 X79.915 Y98.989 E1.53679
G1 X79.348 Y98.555 E1.54866
G1 X78.685 Y98.282 E1.56059
G1 X77.974 Y98.189 E1.57251
G1 X77.263 Y98.282 E1.58444
G1 X76.602 Y98.555 E1.59633
G1 X76.033 Y98.989 E1.60823
G1 X75.597 Y99.554 E1.6201
G1 X75.321 Y100.212 E1.63197
G1 X75.228 Y100.92 E1.64384
G1 X75.321 Y101.627 E1.6557
G1 X75.597 Y102.285 E1.66757
G1 X76.033 Y102.85 E1.67943
G1 X76.602 Y103.284 E1.69134
G1 X77.263 Y103.557 E1.70323
G0 F3600 X77.461 Y103.582
G0 X77.397 Y104.078
G0 X78.78 Y103.904
G0 X78.909 Y104.39
G1 F1800 X77.974 Y104.512 E1.71891
G1 X77.04 Y104.39 E1.73457
G1 X76.166 Y104.029 E1.7503
G1 X75.417 Y103.458 E1.76596
G1 X74.845 Y102.717 E1.78153
G1 X74.481 Y101.846 E1.79723
G1 X74.358 Y100.92 E1.81276
G1 X74.481 Y99.993 E1.82831
G1 X74.845 Y99.122 E1.84401
G1 X75.417 Y98.381 E1.85958
G1 X76.166 Y97.81 E1.87524
G1 X77.04 Y97.449 E1.89097
G1 X77.974 Y97.327 E1.90663
G1 X78.909 Y97.449 E1.92231
G1 X79.783 Y97.81 E1.93804
G1 X80.532 Y98.381 E1.9537
G1 X81.104 Y99.122 E1.96927
G1 X81.467 Y99.993 E1.98496
G1 X81.59 Y100.92 E2.00051
G1 X81.467 Y101.846 E2.01605
G1 X81.104 Y102.717 E2.03174
G1 X80.532 Y103.458 E2.04731
G1 X79.783 Y104.029 E2.06297
G1 X78.909 Y104.39 E2.0787
G0 F3600 X78.711 Y104.415
G1 F1800 E1.2787
G0 F3600 X78.648 Y103.919
G0 X77.808 Y105.361
G0 X76.868 Y163.174
G0 X76.702 Y164.447
G0 X75.877 Y164.549
G0 X75.11 Y164.866
G0 X74.449 Y165.37
G0 X73.941 Y166.027
G0 X73.621 Y166.792
G0 X73.511 Y167.615
G0 X73.621 Y168.438
G0 X73.941 Y169.203
G0 X74.449 Y169.86
G0 X75.11 Y170.364
G0 X75.869 Y170.676
G1 F1800 E2.0787
G0 F3600 X75.887 Y170.643
;TYPE:WALL-INNER
G1 F1800 X76.702 Y170.749 E2.09236
G1 X77.517 Y170.643 E2.10603
G1 X78.275 Y170.33 E2.11967
G1 X78.927 Y169.832 E2.13331
G1 X79.429 Y169.183 E2.14696
G1 X79.745 Y168.428 E2.16057
G1 X79.853 Y167.615 E2.17421
G1 X79.745 Y166.802 E2.18785
G1 X79.429 Y166.047 E2.20146
G1 X78.927 Y165.398 E2.2151
G1 X78.275 Y164.9 E2.22875
G1 X77.517 Y164.587 E2.24238
G1 X76.702 Y164.481 E2.25605
G1 X75.887 Y164.587 E2.26972
G1 X75.129 Y164.9 E2.28336
G1 X74.477 Y165.398 E2.297
G1 X73.975 Y166.047 E2.31065
G1 X73.659 Y166.802 E2.32426
G1 X73.551 Y167.615 E2.3379
G1 X73.659 Y168.428 E2.35154
G1 X73.975 Y169.183 E2.36515
G1 X74.477 Y169.832 E2.37879
G1 X75.129 Y170.33 E2.39244
G1 X75.887 Y170.643 E2.40607
G0 F3600 X75.862 Y170.739
G0 X77.509 Y170.599
G0 X77.534 Y170.695
G1 F1800 X76.702 Y170.803 E2.40807
G1 X75.87 Y170.695 E2.41007
G1 X75.095 Y170.375 E2.41212
G1 X74.428 Y169.867 E2.41425
G1 X73.921 Y169.21 E2.41645
G1 X73.599 Y168.438 E2.41867
G1 X73.49 Y167.615 E2.42082
G1 X73.599 Y166.792 E2.42298
G1 X73.921 Y166.02 E2.4252
G1 X74.428 Y165.363 E2.42742
G1 X75.095 Y164.855 E2.42957
G1 X75.87 Y164.535 E2.43161
G1 X76.702 Y164.427 E2.43361
G1 X77.534 Y164.535 E2.43561
G1 X78.308 Y164.855 E2.43763
G1 X78.975 Y165.363 E2.43974
G1 X79.483 Y166.02 E2.44195
G1 X79.805 Y166.792 E2.44417
G1 X79.914 Y167.615 E2.44633
G1 X79.805 Y168.438 E2.44849
G1 X79.483 Y169.21 E2.4507
G1 X78.975 Y169.867 E2.45291
G1 X78.308 Y170.375 E2.45503
G1 X77.534 Y170.695 E2.45705
G0 F3600 X77.636 Y171.085
;TYPE:WALL-OUTER
G1 F1800 X76.702 Y171.207 E2.47271
G1 X75.768 Y171.085 E2.48837
G1 X74.893 Y170.725 E2.50411
G1 X74.144 Y170.154 E2.51977
G1 X73.572 Y169.413 E2.53534
G1 X73.209 Y168.541 E2.55105
G1 X73.086 Y167.615 E2.56658
G1 X73.209 Y166.689 E2.58212
G1 X73.572 Y165.817 E2.59782
G1 X74.144 Y165.076 E2.61339
G1 X74.893 Y164.505 E2.62905
G1 X75.768 Y164.145 E2.64479
G1 X76.702 Y164.023 E2.66045
G1 X77.636 Y164.145 E2.67612
G1 X78.51 Y164.505 E2.69184
G1 X79.259 Y165.076 E2.7075
G1 X79.831 Y165.817 E2.72307
G1 X80.195 Y166.689 E2.73878
G1 X80.318 Y167.615 E2.75432
G1 X80.195 Y168.541 E2.76985
G1 X79.831 Y169.413 E2.78556
G1 X79.259 Y170.154 E2.80113
G1 X78.51 Y170.725 E2.81679
G1 X77.636 Y171.085 E2.83251
G0 F3600 X77.438 Y171.11
G0 X77.375 Y170.615
G0 X75.927 Y170.748
G0 X75.991 Y170.253
G1 F1800 X76.702 Y170.346 E2.84444
G1 X77.413 Y170.253 E2.85636
G1 X78.074 Y169.98 E2.86826
G1 X78.643 Y169.546 E2.88016
G1 X79.08 Y168.98 E2.89205
G1 X79.355 Y168.323 E2.90389
G1 X79.449 Y167.615 E2.91577
G1 X79.355 Y166.907 E2.92765
G1 X79.08 Y166.25 E2.93949
G1 X78.643 Y165.684 E2.95138
G1 X78.074 Y165.25 E2.96329
G1 X77.413 Y164.977 E2.97518
G1 X76.702 Y164.884 E2.9871
G1 X75.991 Y164.977 E2.99903
G1 X75.33 Y165.25 E3.01092
G1 X74.761 Y165.684 E3.02282
G1 X74.324 Y166.25 E3.03471
G1 X74.049 Y166.907 E3.04656
G1 X73.955 Y167.615 E3.05844
G1 X74.049 Y168.323 E3.07031
G1 X74.324 Y168.98 E3.08216
G1 X74.761 Y169.546 E3.09405
G1 X75.33 Y169.98 E3.10595
G1 X75.991 Y170.253 E3.11784
G0 F3600 X76.189 Y170.278
G1 F1800 E2.31784
G0 F3600 X76.125 Y170.774
G0 X77.529 Y170.676
G0 X78.017 Y171.863
G0 X105.317 Y195.896
G0 X106.59 Y196.063
G0 X106.701 Y196.886
G0 X107.022 Y197.652
G0 X107.529 Y198.308
G0 X108.19 Y198.812
G0 X108.942 Y199.187
G1 F1800 E3.11784
G0 F3600 X108.967 Y199.091
;TYPE:WALL-INNER
G1 F1800 X109.782 Y199.197 E3.13151
G1 X110.597 Y199.091 E3.14518
G1 X111.357 Y198.778 E3.15885
G1 X112.008 Y198.28 E3.17248
G1 X112.509 Y197.632 E3.1861
G1 X112.825 Y196.876 E3.19973
G1 X112.933 Y196.063 E3.21336
G1 X112.825 Y195.25 E3.227
G1 X112.509 Y194.495 E3.24061
G1 X112.008 Y193.846 E3.25425
G1 X111.357 Y193.348 E3.26788
G1 X110.597 Y193.035 E3.28155
G1 X109.782 Y192.929 E3.29522
G1 X108.967 Y193.035 E3.30888
G1 X108.209 Y193.348 E3.32252
G1 X107.556 Y193.846 E3.33618
G1 X107.056 Y194.495 E3.3498
G1 X106.739 Y195.25 E3.36342
G1 X106.633 Y196.063 E3.37706
G1 X106.739 Y196.876 E3.39069
G1 X107.056 Y197.632 E3.40432
G1 X107.557 Y198.28 E3.41794
G1 X108.209 Y198.778 E3.43159
G1 X108.967 Y199.091 E3.44523
G0 F3600 X108.942 Y199.187
G0 X110.59 Y199.047
G0 X110.615 Y199.143
G1 F1800 X109.782 Y199.251 E3.44725
G1 X108.95 Y199.143 E3.44925
G1 X108.176 Y198.823 E3.45127
G1 X107.509 Y198.315 E3.45339
G1 X107.001 Y197.658 E3.45562
G1 X106.679 Y196.886 E3.45782
G1 X106.57 Y196.063 E3.46002
G1 X106.679 Y195.24 E3.46221
G1 X107.002 Y194.469 E3.46439
G1 X107.509 Y193.812 E3.46657
G1 X108.176 Y193.302 E3.46869
G1 X108.95 Y192.983 E3.47073
G1 X109.782 Y192.875 E3.47273
G1 X110.615 Y192.983 E3.47475
G1 X111.389 Y193.302 E3.47679
G1 X112.056 Y193.812 E3.47892
G1 X112.563 Y194.469 E3.48109
G1 X112.886 Y195.24 E3.48329
G1 X112.994 Y196.063 E3.48547
G1 X112.886 Y196.886 E3.48764
G1 X112.564 Y197.658 E3.48986
G1 X112.056 Y198.315 E3.4921
G1 X111.389 Y198.823 E3.49422
G1 X110.615 Y199.143 E3.49624
G0 F3600 X110.717 Y199.533
;TYPE:WALL-OUTER
G1 F1800 X109.782 Y199.655 E3.51192
G1 X108.848 Y199.533 E3.52759
G1 X107.974 Y199.173 E3.54331
G1 X107.225 Y198.602 E3.55897
G1 X106.653 Y197.861 E3.57454
G1 X106.289 Y196.989 E3.59025
G1 X106.166 Y196.063 E3.60579
G1 X106.289 Y195.137 E3.62132
G1 X106.653 Y194.266 E3.63702
G1 X107.226 Y193.525 E3.6526
G1 X107.974 Y192.953 E3.66826
G1 X108.848 Y192.593 E3.68397
G1 X109.782 Y192.471 E3.69964
G1 X110.717 Y192.593 E3.71532
G1 X111.591 Y192.953 E3.73104
G1 X112.339 Y193.525 E3.7467
G1 X112.912 Y194.266 E3.76228
G1 X113.276 Y195.137 E3.77798
G1 X113.398 Y196.063 E3.79351
G1 X113.276 Y196.989 E3.80904
G1 X112.912 Y197.861 E3.82475
G1 X112.34 Y198.602 E3.84032
G1 X111.591 Y199.173 E3.85598
G1 X110.717 Y199.533 E3.8717
G0 F3600 X110.519 Y199.558
G0 X110.456 Y199.063
G0 X109.007 Y199.196
G0 X109.071 Y198.701
G1 F1800 X109.782 Y198.794 E3.88363
G1 X110.493 Y198.701 E3.89555
G1 X111.156 Y198.428 E3.90748
G1 X111.723 Y197.994 E3.91935
G1 X112.16 Y197.429 E3.93123
G1 X112.435 Y196.771 E3.94309
G1 X112.529 Y196.063 E3.95497
G1 X112.435 Y195.355 E3.96684
G1 X112.16 Y194.698 E3.97869
G1 X111.723 Y194.132 E3.99058
G1 X111.156 Y193.698 E4.00246
G1 X110.493 Y193.425 E4.01438
G1 X109.782 Y193.332 E4.0263
G1 X109.071 Y193.425 E4.03823
G1 X108.41 Y193.698 E4.05012
G1 X107.841 Y194.132 E4.06202
G1 X107.405 Y194.698 E4.0739
G1 X107.129 Y195.355 E4.08575
G1 X107.036 Y196.063 E4.09763
G1 X107.129 Y196.771 E4.10951
G1 X107.405 Y197.429 E4.12137
G1 X107.841 Y197.994 E4.13324
G1 X108.41 Y198.428 E4.14514
G1 X109.071 Y198.701 E4.15703
G0 F3600 X109.269 Y198.726
G1 F1800 E3.35703
G0 F3600 X109.205 Y199.222
G0 X110.61 Y199.124
G0 X111.098 Y200.311
G0 X126.191 Y213.1
G0 X127.456 Y213.1
G0 X141.075 Y213.5
;TYPE:WALL-INNER
G1 F1800 E4.15703
G1 X153.529 Y213.5 E4.36414
G1 X153.529 Y225.876 E4.56996
G1 X223.327 Y225.876 E5.7307
G1 X223.327 Y212.654 E5.95059
G1 X222.019 Y211.353 E5.98127
G1 X220.873 Y212.491 E6.00812
G1 X217.298 Y214.3 E6.07476
G1 X213.334 Y214.925 E6.14149
G1 X209.369 Y214.3 E6.20824
G1 X205.794 Y212.491 E6.27487
G1 X202.954 Y209.67 E6.34144
G1 X201.138 Y206.125 E6.40768
G1 X200.511 Y202.188 E6.47398
G1 X201.138 Y198.249 E6.54031
G1 X202.954 Y194.706 E6.60652
G1 X204.112 Y193.557 E6.63365
G1 X173.072 Y162.712 E7.36137
G1 X172.098 Y163.679 E7.3842
G1 X168.525 Y165.488 E7.4508
G1 X164.56 Y166.113 E7.51755
G1 X160.596 Y165.488 E7.58429
G1 X157.021 Y163.679 E7.65092
G1 X154.183 Y160.859 E7.71745
G1 X152.363 Y157.309 E7.78379
G1 X151.736 Y153.376 E7.85003
G1 X152.363 Y149.441 E7.91629
G1 X154.183 Y145.891 E7.98263
G1 X155.163 Y144.916 E8.00562
G1 X152.984 Y142.75 E8.05672
G1 X141.075 Y142.75 E8.25477
G1 X141.075 Y213.5 E9.43134
G0 F3600 X153.901 Y213.128
G0 X153.901 Y225.504
G0 X222.955 Y225.504
G0 X222.963 Y212.805
G0 X222.556 Y210.818
G1 F1800 X225.256 Y213.5 E9.49463
G1 X235.78 Y213.5 E9.66965
G1 X235.78 Y142.75 E10.84622
G1 X223.327 Y142.75 E11.05332
G1 X223.327 Y130.376 E11.2591
G1 X153.529 Y130.376 E12.41984
G1 X153.529 Y142.22 E12.61681
G1 X155.702 Y144.381 E12.66777
G1 X157.021 Y143.071 E12.69869
G1 X160.596 Y141.262 E12.76532
G1 X164.56 Y140.639 E12.83205
G1 X168.525 Y141.262 E12.8988
G1 X172.098 Y143.071 E12.9654
G1 X174.939 Y145.893 E13.03199
G1 X176.756 Y149.437 E13.09822
G1 X177.383 Y153.376 E13.16455
G1 X176.756 Y157.313 E13.23085
G1 X174.939 Y160.857 E13.29708
G1 X173.611 Y162.178 E13.32823
G1 X204.649 Y193.022 E14.05592
G1 X205.794 Y191.885 E14.08276
G1 X209.369 Y190.074 E14.1494
G1 X213.334 Y189.451 E14.21615
G1 X217.298 Y190.074 E14.28288
G1 X220.873 Y191.885 E14.34953
G1 X223.712 Y194.705 E14.41607
G1 X225.53 Y198.251 E14.48234
G1 X226.158 Y202.188 E14.54864
G1 X225.53 Y206.125 E14.61494
G1 X223.713 Y209.67 E14.68119
G1 X222.556 Y210.818 E14.70829
G0 F3600 X224.999 Y205.956
G0 X225.599 Y202.188
G0 X224.999 Y198.42
G0 X223.263 Y195.036
G0 X220.542 Y192.334
G0 X217.135 Y190.608
G0 X213.334 Y190.01
G0 X208.093 Y190.314
G0 X204.649 Y192.498
G0 X174.138 Y162.178
G0 X177.748 Y153.376
G0 X175.233 Y145.676
G0 X168.639 Y140.915
G0 X160.482 Y140.915
G0 X155.702 Y143.857
G0 X153.893 Y142.069
G0 X153.893 Y117.93
G0 X155.529 Y115.791
G1 F1800 X153.529 Y117.779 E14.75519
G1 X153.529 Y129.624 E14.95217
G1 X223.327 Y129.624 E16.11292
G1 X223.327 Y117.25 E16.3187
G1 X235.78 Y117.25 E16.52579
G1 X235.78 Y46.5 E17.70237
G1 X225.255 Y46.5 E17.8774
G1 X222.555 Y49.181 E17.94068
G1 X223.713 Y50.33 E17.96781
G1 X225.53 Y53.875 E18.03405
G1 X226.158 Y57.812 E18.10035
G1 X225.53 Y61.749 E18.16665
G1 X223.712 Y65.295 E18.23292
G1 X220.873 Y68.115 E18.29947
G1 X217.298 Y69.926 E18.36611
G1 X213.334 Y70.549 E18.43284
G1 X209.369 Y69.926 E18.49959
G1 X205.794 Y68.115 E18.56624
G1 X204.648 Y66.977 E18.5931
G1 X173.438 Y97.994 E19.32484
G1 X174.593 Y99.143 E19.35193
G1 X176.41 Y102.687 E19.41817
G1 X177.037 Y106.624 E19.48446
G1 X176.41 Y110.563 E19.55079
G1 X174.593 Y114.107 E19.61703
G1 X171.752 Y116.929 E19.68362
G1 X168.179 Y118.738 E19.75022
G1 X164.214 Y119.361 E19.81697
G1 X160.25 Y118.738 E19.8837
G1 X156.675 Y116.929 E19.95033
G1 X155.529 Y115.791 E19.97719
G0 F3600 X152.833 Y116.886
G0 X128.55 Y116.886
G0 X126.394 Y115.256
G1 F1800 X128.4 Y117.25 E20.02422
G1 X140.308 Y117.25 E20.22225
G1 X140.308 Y46.5 E21.39883
G1 X127.856 Y46.5 E21.60591
G1 X127.856 Y34.124 E21.81172
G1 X56.673 Y34.124 E22.9955
G1 X56.673 Y45.97 E23.1925
G1 X58.673 Y47.959 E23.23941
G1 X59.819 Y46.821 E23.26627
G1 X63.394 Y45.012 E23.3329
G1 X67.358 Y44.387 E23.39963
G1 X71.323 Y45.012 E23.46639
G1 X74.897 Y46.821 E23.533
G1 X77.735 Y49.641 E23.59954
G1 X79.555 Y53.191 E23.66588
G1 X80.181 Y57.124 E23.73211
G1 X79.555 Y61.059 E23.79837
G1 X77.735 Y64.609 E23.86471
G1 X76.582 Y65.756 E23.89176
G1 X108.485 Y97.459 E24.63972
G1 X109.631 Y96.321 E24.66658
G1 X113.205 Y94.512 E24.7332
G1 X117.169 Y93.887 E24.79993
G1 X121.135 Y94.512 E24.8667
G1 X124.708 Y96.321 E24.9333
G1 X127.546 Y99.141 E24.99983
G1 X129.366 Y102.691 E25.06618
G1 X129.993 Y106.624 E25.13241
G1 X129.366 Y110.559 E25.19867
G1 X127.545 Y114.111 E25.26506
G1 X126.394 Y115.256 E25.29205
G0 F3600 X128.55 Y116.886
G0 X139.936 Y116.878
G0 X141.075 Y46.5
G1 F1800 X141.075 Y117.25 E26.46863
G1 X152.983 Y117.25 E26.66666
G1 X154.992 Y115.256 E26.71374
G1 X153.835 Y114.107 E26.74085
G1 X152.018 Y110.563 E26.80708
G1 X151.39 Y106.624 E26.87342
G1 X152.018 Y102.687 E26.93972
G1 X153.835 Y99.143 E27.00595
G1 X156.675 Y96.321 E27.07253
G1 X160.25 Y94.512 E27.13916
G1 X164.214 Y93.887 E27.2059
G1 X168.179 Y94.512 E27.27265
G1 X171.752 Y96.321 E27.33925
G1 X172.899 Y97.459 E27.36612
G1 X204.109 Y66.443 E28.09785
G1 X202.954 Y65.294 E28.12495
G1 X201.138 Y61.751 E28.19116
G1 X200.511 Y57.812 E28.25749
G1 X201.138 Y53.875 E28.32378
G1 X202.954 Y50.33 E28.39002
G1 X205.794 Y47.509 E28.45659
G1 X209.369 Y45.7 E28.52322
G1 X213.334 Y45.075 E28.58998
G1 X217.298 Y45.7 E28.65671
G1 X220.873 Y47.509 E28.72334
G1 X222.018 Y48.646 E28.75018
G1 X223.327 Y47.347 E28.78084
G1 X223.327 Y34.124 E29.00074
G1 X153.529 Y34.124 E30.16149
G1 X153.529 Y46.5 E30.3673
G1 X141.075 Y46.5 E30.57441
G0 F3600 X139.936 Y116.878
G0 X128.55 Y116.886
G0 X126.921 Y115.256
G0 X130.358 Y106.624
G0 X127.841 Y98.925
G0 X121.249 Y94.165
G0 X113.091 Y94.165
G0 X108.485 Y96.935
G0 X76.043 Y66.814
G0 X67.358 Y70.226
G0 X59.605 Y67.726
G0 X54.815 Y61.173
G0 X54.815 Y53.077
G0 X57.607 Y48.494
G0 X55.978 Y46.864
G0 X44.592 Y46.872
G0 X44.22 Y117.25
G1 F1800 X56.673 Y117.25 E30.78151
G1 X56.673 Y129.624 E30.98729
G1 X127.856 Y129.624 E32.17107
G1 X127.856 Y117.78 E32.36803
G1 X125.855 Y115.79 E32.41496
G1 X124.708 Y116.929 E32.44185
G1 X121.135 Y118.738 E32.50845
G1 X117.169 Y119.361 E32.57521
G1 X113.205 Y118.738 E32.64194
G1 X109.631 Y116.929 E32.70856
G1 X106.791 Y114.107 E32.77514
G1 X104.974 Y110.563 E32.84137
G1 X104.346 Y106.624 E32.9077
G1 X104.974 Y102.687 E32.974
G1 X106.791 Y99.143 E33.04024
G1 X107.946 Y97.994 E33.06733
G1 X76.043 Y66.29 E33.8153
G1 X74.901 Y67.427 E33.8421
G1 X71.323 Y69.238 E33.90879
G1 X67.358 Y69.861 E33.97554
G1 X63.394 Y69.238 E34.04227
G1 X59.819 Y67.429 E34.1089
G1 X56.979 Y64.607 E34.17548
G1 X55.162 Y61.06 E34.24176
G1 X54.533 Y57.124 E34.30804
G1 X55.162 Y53.19 E34.3743
G1 X56.979 Y49.643 E34.44057
G1 X58.134 Y48.494 E34.46767
G1 X56.128 Y46.5 E34.5147
G1 X44.22 Y46.5 E34.71273
G1 X44.22 Y117.25 E35.88931
G0 F3600 X56.111 Y117.812
G0 X56.111 Y142.188
G0 X44.22 Y142.75
G1 F1800 X44.22 Y213.5 E37.06589
G1 X56.127 Y213.5 E37.2639
G1 X58.136 Y211.506 E37.31098
G1 X56.979 Y210.357 E37.33809
G1 X55.162 Y206.81 E37.40437
G1 X54.533 Y202.876 E37.47062
G1 X55.162 Y198.94 E37.53691
G1 X56.979 Y195.393 E37.60318
G1 X59.819 Y192.571 E37.66977
G1 X63.394 Y190.762 E37.7364
G1 X67.358 Y190.139 E37.80313
G1 X71.323 Y190.762 E37.86987
G1 X74.897 Y192.571 E37.93649
G1 X76.043 Y193.709 E37.96335
G1 X107.599 Y162.35 E38.70318
G1 X106.444 Y161.201 E38.73028
G1 X104.628 Y157.657 E38.7965
G1 X104 Y153.718 E38.86283
G1 X104.628 Y149.781 E38.92914
G1 X106.444 Y146.236 E38.99537
G1 X109.285 Y143.415 E39.06196
G1 X112.859 Y141.606 E39.12857
G1 X116.823 Y140.981 E39.19531
G1 X120.789 Y141.606 E39.26208
G1 X124.363 Y143.415 E39.32869
G1 X125.509 Y144.553 E39.35555
G1 X127.856 Y142.22 E39.41058
G1 X127.856 Y130.376 E39.60755
G1 X56.673 Y130.376 E40.79133
G1 X56.673 Y142.75 E40.99711
G1 X44.22 Y142.75 E41.2042
G0 F3600 X44.592 Y213.128
G0 X55.977 Y213.136
G0 X58.672 Y212.04
G1 F1800 X56.673 Y214.028 E41.25109
G1 X56.673 Y225.876 E41.44812
G1 X127.856 Y225.876 E42.6319
G1 X127.856 Y213.5 E42.83771
G1 X140.308 Y213.5 E43.04479
G1 X140.308 Y142.75 E44.22137
G1 X128.4 Y142.75 E44.4194
G1 X126.048 Y145.088 E44.47455
G1 X127.201 Y146.235 E44.50159
G1 X129.02 Y149.783 E44.5679
G1 X129.647 Y153.718 E44.63417
G1 X129.02 Y157.653 E44.70043
G1 X127.2 Y161.203 E44.76677
G1 X124.363 Y164.021 E44.83327
G1 X120.789 Y165.832 E44.8999
G1 X116.823 Y166.455 E44.96667
G1 X112.859 Y165.832 E45.0334
G1 X109.285 Y164.021 E45.10003
G1 X108.139 Y162.884 E45.12687
G1 X76.582 Y194.244 E45.86673
G1 X77.735 Y195.391 E45.89378
G1 X79.555 Y198.941 E45.96012
G1 X80.181 Y202.876 E46.02639
G1 X79.555 Y206.809 E46.09261
G1 X77.735 Y210.359 E46.15896
G1 X74.897 Y213.179 E46.22549
G1 X71.323 Y214.988 E46.29211
G1 X67.358 Y215.613 E46.35886
G1 X63.394 Y214.988 E46.4256
G1 X59.819 Y213.179 E46.49223
G1 X58.672 Y212.04 E46.51911
G0 F3600 X57.037 Y214.179
G0 X56.673 Y226.626
G1 F1800 X56.673 Y239 E46.72489
G1 X31 Y239 E47.15183
G1 X31 Y213.5 E47.5759
G1 X43.452 Y213.5 E47.78298
G1 X43.452 Y142.75 E48.95955
G1 X31 Y142.75 E49.16663
G1 X31 Y117.25 E49.5907
G1 X43.452 Y117.25 E49.79778
G1 X43.452 Y46.5 E50.97435
G1 X31 Y46.5 E51.18143
G1 X31 Y21 E51.6055
G1 X56.673 Y21 E52.03244
G1 X56.673 Y33.374 E52.23822
G1 X127.856 Y33.374 E53.422
G1 X127.856 Y21 E53.62778
G1 X153.529 Y21 E54.05472
G1 X153.529 Y33.374 E54.2605
G1 X223.327 Y33.374 E55.42125
G1 X223.327 Y21 E55.62703
G1 X249 Y21 E56.05397
G1 X249 Y46.5 E56.47804
G1 X236.548 Y46.5 E56.68512
G1 X236.548 Y117.25 E57.8617
G1 X249 Y117.25 E58.06877
G1 X249 Y142.75 E58.49284
G1 X236.548 Y142.75 E58.69992
G1 X236.548 Y213.5 E59.8765
G1 X249 Y213.5 E60.08357
G1 X249 Y239 E60.50764
G1 X223.327 Y239 E60.93458
G1 X223.327 Y226.626 E61.14036
G1 X153.529 Y226.626 E62.30111
G1 X153.529 Y239 E62.50689
G1 X127.856 Y239 E62.93383
G1 X127.856 Y226.626 E63.13961
G1 X56.673 Y226.626 E64.32339
G0 F3600 X57.073 Y227.026
G1 F1800 X57.073 Y239.4 E64.52917
G1 X30.6 Y239.4 E64.96942
G1 X30.6 Y213.1 E65.40679
G1 X43.052 Y213.1 E65.61387
G1 X43.052 Y143.15 E66.77714
G1 X30.6 Y143.15 E66.98422
G1 X30.6 Y116.85 E67.42159
G1 X43.052 Y116.85 E67.62867
G1 X43.052 Y46.9 E68.79194
G1 X30.6 Y46.9 E68.99902
G1 X30.6 Y20.6 E69.43639
G1 X57.073 Y20.6 E69.87664
G1 X57.073 Y32.974 E70.08242
G1 X127.456 Y32.974 E71.25289
G1 X127.456 Y20.6 E71.45867
G1 X153.929 Y20.6 E71.89892
G1 X153.929 Y32.974 E72.1047
G1 X222.927 Y32.974 E73.25214
G1 X222.927 Y20.6 E73.45792
G1 X249.4 Y20.6 E73.89817
G1 X249.4 Y46.9 E74.33554
G1 X236.948 Y46.9 E74.54262
G1 X236.948 Y116.85 E75.70589
G1 X249.4 Y116.85 E75.91297
G1 X249.4 Y143.15 E76.35034
G1 X236.948 Y143.15 E76.55742
G1 X236.948 Y213.1 E77.72069
G1 X249.4 Y213.1 E77.92777
G1 X249.4 Y239.4 E78.36514
G1 X222.927 Y239.4 E78.80539
G1 X222.927 Y227.026 E79.01117
G1 X153.929 Y227.026 E80.15861
G1 X153.929 Y239.4 E80.36439
G1 X127.456 Y239.4 E80.80464
G1 X127.456 Y227.026 E81.01042
G1 X57.073 Y227.026 E82.18089
G0 F3600 X57.003 Y226.956
G0 X57.037 Y214.179
G0 X58.672 Y212.504
G0 X58.672 Y212.604
G1 F1800 X57.073 Y214.194 E82.21839
G1 X57.073 Y225.476 E82.40601
G1 X127.456 Y225.476 E83.57649
G1 X127.456 Y213.1 E83.7823
G1 X139.908 Y213.1 E83.98938
G1 X139.908 Y143.15 E85.15265
G1 X128.565 Y143.15 E85.34129
G1 X126.615 Y145.088 E85.38701
G1 X127.527 Y145.995 E85.4084
G1 X129.405 Y149.658 E85.47685
G1 X130.052 Y153.718 E85.54522
G1 X129.405 Y157.78 E85.61362
G1 X127.527 Y161.442 E85.68206
G1 X124.6 Y164.35 E85.75068
G1 X120.915 Y166.217 E85.81938
G1 X116.823 Y166.86 E85.88826
G1 X112.733 Y166.217 E85.95712
G1 X109.048 Y164.35 E86.02581
G1 X108.139 Y163.448 E86.04711
G1 X77.149 Y194.244 E86.77367
G1 X78.062 Y195.152 E86.79508
G1 X79.94 Y198.814 E86.86352
G1 X80.586 Y202.876 E86.93192
G1 X79.94 Y206.936 E87.00029
G1 X78.062 Y210.598 E87.06873
G1 X75.134 Y213.508 E87.13738
G1 X71.449 Y215.373 E87.20607
G1 X67.358 Y216.018 E87.27494
G1 X63.268 Y215.373 E87.3438
G1 X59.582 Y213.508 E87.4125
G1 X58.672 Y212.604 E87.43383
G0 F3600 X58.672 Y212.504
G0 X55.977 Y213.136
G0 X44.592 Y213.128
G0 X44.55 Y143.08
G0 X44.62 Y143.15
G1 F1800 X44.62 Y213.1 E88.5971
G1 X55.962 Y213.1 E88.78572
G1 X57.568 Y211.506 E88.82335
G1 X56.653 Y210.597 E88.8448
G1 X54.777 Y206.935 E88.91322
G1 X54.128 Y202.876 E88.98158
G1 X54.777 Y198.815 E89.04997
G1 X56.653 Y195.153 E89.1184
G1 X59.582 Y192.242 E89.18707
G1 X63.268 Y190.377 E89.25577
G1 X67.358 Y189.734 E89.32462
G1 X71.449 Y190.377 E89.39349
G1 X75.134 Y192.242 E89.46218
G1 X76.043 Y193.145 E89.48348
G1 X107.032 Y162.35 E90.21002
G1 X106.118 Y161.441 E90.23146
G1 X104.243 Y157.782 E90.29983
G1 X103.595 Y153.718 E90.36827
G1 X104.243 Y149.656 E90.43667
G1 X106.118 Y145.996 E90.50506
G1 X109.048 Y143.086 E90.57374
G1 X112.733 Y141.221 E90.64242
G1 X116.823 Y140.576 E90.71128
G1 X120.915 Y141.221 E90.78017
G1 X124.6 Y143.086 E90.84885
G1 X125.509 Y143.989 E90.87016
G1 X127.456 Y142.054 E90.91581
G1 X127.456 Y130.776 E91.10336
G1 X57.073 Y130.776 E92.27384
G1 X57.073 Y143.15 E92.47962
G1 X44.62 Y143.15 E92.68671
G0 F3600 X44.55 Y143.08
G0 X56.111 Y142.188
G0 X56.111 Y117.812
G0 X44.55 Y116.92
G0 X44.62 Y116.85
G1 F1800 X57.073 Y116.85 E92.89381
G1 X57.073 Y129.224 E93.09959
G1 X127.456 Y129.224 E94.27006
G1 X127.456 Y117.946 E94.45761
G1 X125.855 Y116.354 E94.49516
G1 X124.945 Y117.258 E94.51649
G1 X121.261 Y119.123 E94.58516
G1 X117.169 Y119.766 E94.65405
G1 X113.079 Y119.123 E94.7229
G1 X109.394 Y117.258 E94.79158
G1 X106.465 Y114.347 E94.86026
G1 X104.589 Y110.688 E94.92864
G1 X103.941 Y106.624 E94.99708
G1 X104.589 Y102.562 E95.06548
G1 X106.465 Y98.903 E95.13386
G1 X107.379 Y97.994 E95.1553
G1 X76.043 Y66.854 E95.88997
G1 X75.136 Y67.757 E95.91126
G1 X71.449 Y69.623 E95.97998
G1 X67.358 Y70.266 E96.04885
G1 X63.268 Y69.623 E96.1177
G1 X59.582 Y67.758 E96.1864
G1 X56.653 Y64.847 E96.25507
G1 X54.777 Y61.185 E96.3235
G1 X54.128 Y57.124 E96.39189
G1 X54.777 Y53.065 E96.46025
G1 X56.653 Y49.403 E96.52867
G1 X57.567 Y48.494 E96.55011
G1 X55.963 Y46.9 E96.58772
G1 X44.62 Y46.9 E96.77635
G1 X44.62 Y116.85 E97.93962
G0 F3600 X44.55 Y116.92
G0 X57.045 Y116.878
G0 X57.045 Y129.252
G0 X127.484 Y129.252
G0 X127.492 Y117.931
G0 X126.861 Y115.256
G0 X126.961 Y115.256
G1 F1800 X128.565 Y116.85 E97.97723
G1 X139.908 Y116.85 E98.16587
G1 X139.908 Y46.9 E99.32914
G1 X127.456 Y46.9 E99.53622
G1 X127.456 Y34.524 E99.74203
G1 X57.073 Y34.524 E100.9125
G1 X57.073 Y45.804 E101.10009
G1 X58.673 Y47.395 E101.13762
G1 X59.582 Y46.492 E101.15892
G1 X63.268 Y44.627 E101.22762
G1 X67.358 Y43.982 E101.29648
G1 X71.449 Y44.627 E101.36535
G1 X75.134 Y46.492 E101.43404
G1 X78.062 Y49.402 E101.50269
G1 X79.94 Y53.064 E101.57113
G1 X80.586 Y57.124 E101.63949
G1 X79.94 Y61.186 E101.7079
G1 X78.062 Y64.848 E101.77634
G1 X77.149 Y65.756 E101.79775
G1 X108.485 Y96.895 E102.53241
G1 X109.394 Y95.992 E102.55372
G1 X113.079 Y94.127 E102.6224
G1 X117.169 Y93.482 E102.69126
G1 X121.261 Y94.127 E102.76015
G1 X124.945 Y95.992 E102.82882
G1 X127.873 Y98.902 E102.89747
G1 X129.751 Y102.564 E102.96591
G1 X130.398 Y106.624 E103.03428
G1 X129.751 Y110.686 E103.10268
G1 X127.872 Y114.35 E103.17116
G1 X126.961 Y115.256 E103.19253
G0 F3600 X126.861 Y115.256
G0 X128.55 Y116.886
G0 X152.833 Y116.886
G0 X155.529 Y116.255
G0 X155.529 Y116.355
G1 F1800 X153.929 Y117.945 E103.23004
G1 X153.929 Y129.224 E103.41761
G1 X222.927 Y129.224 E104.56505
G1 X222.927 Y116.85 E104.77083
G1 X235.38 Y116.85 E104.97793
G1 X235.38 Y46.9 E106.1412
G1 X225.42 Y46.9 E106.30683
G1 X223.123 Y49.181 E106.36067
G1 X224.039 Y50.09 E106.38213
G1 X225.915 Y53.75 E106.45053
G1 X226.563 Y57.812 E106.51893
G1 X225.915 Y61.874 E106.58734
G1 X224.038 Y65.535 E106.65575
G1 X221.11 Y68.444 E106.72439
G1 X217.424 Y70.311 E106.79311
G1 X213.334 Y70.954 E106.86196
G1 X209.243 Y70.311 E106.93083
G1 X205.557 Y68.444 E106.99954
G1 X204.648 Y67.541 E107.02085
G1 X174.005 Y97.994 E107.73929
G1 X174.919 Y98.903 E107.76073
G1 X176.795 Y102.562 E107.82911
G1 X177.442 Y106.624 E107.89752
G1 X176.795 Y110.688 E107.96595
G1 X174.919 Y114.347 E108.03433
G1 X171.989 Y117.258 E108.10302
G1 X168.305 Y119.123 E108.17169
G1 X164.214 Y119.766 E108.24056
G1 X160.124 Y119.123 E108.30941
G1 X156.438 Y117.258 E108.37811
G1 X155.529 Y116.355 E108.39941
G0 F3600 X155.529 Y116.255
G0 X152.833 Y116.886
G0 X141.447 Y116.878
G0 X141.405 Y46.83
G0 X141.475 Y46.9
G1 F1800 X141.475 Y116.85 E109.56269
G1 X152.818 Y116.85 E109.75132
G1 X154.424 Y115.256 E109.78895
G1 X153.509 Y114.347 E109.8104
G1 X151.633 Y110.688 E109.87878
G1 X150.985 Y106.624 E109.94722
G1 X151.633 Y102.562 E110.01563
G1 X153.509 Y98.903 E110.08401
G1 X156.438 Y95.992 E110.15268
G1 X160.124 Y94.127 E110.22138
G1 X164.214 Y93.482 E110.29024
G1 X168.305 Y94.127 E110.35911
G1 X171.989 Y95.992 E110.42778
G1 X172.899 Y96.895 E110.4491
G1 X203.542 Y66.443 E111.16753
G1 X202.628 Y65.534 E111.18897
G1 X200.753 Y61.876 E111.25733
G1 X200.106 Y57.812 E111.32576
G1 X200.753 Y53.75 E111.39417
G1 X202.628 Y50.09 E111.46256
G1 X205.557 Y47.18 E111.53122
G1 X209.243 Y45.315 E111.59992
G1 X213.334 Y44.67 E111.66879
G1 X217.424 Y45.315 E111.73765
G1 X221.11 Y47.18 E111.80635
G1 X222.018 Y48.082 E111.82763
G1 X222.927 Y47.18 E111.84893
G1 X222.927 Y34.524 E112.0594
G1 X153.929 Y34.524 E113.20684
G1 X153.929 Y46.9 E113.41265
G1 X141.475 Y46.9 E113.61976
G0 F3600 X141.405 Y46.83
G0 X141.405 Y117.8
G0 X152.967 Y117.812
G0 X152.967 Y142.188
G0 X141.405 Y142.2
G0 X141.405 Y213.17
G0 X141.475 Y213.1
G1 F1800 X153.929 Y213.1 E113.82687
G1 X153.929 Y225.476 E114.03269
G1 X222.927 Y225.476 E115.18013
G1 X222.927 Y212.82 E115.3906
G1 X222.019 Y211.917 E115.41189
G1 X221.11 Y212.82 E115.4332
G1 X217.424 Y214.685 E115.5019
G1 X213.334 Y215.33 E115.57076
G1 X209.243 Y214.685 E115.63963
G1 X205.557 Y212.82 E115.70833
G1 X202.628 Y209.91 E115.77699
G1 X200.753 Y206.25 E115.84538
G1 X200.106 Y202.188 E115.91378
G1 X200.753 Y198.124 E115.98222
G1 X202.628 Y194.466 E116.05058
G1 X203.544 Y193.557 E116.07204
G1 X173.072 Y163.276 E116.78645
G1 X172.335 Y164.008 E116.80373
G1 X168.651 Y165.873 E116.87239
G1 X164.56 Y166.518 E116.94127
G1 X160.47 Y165.873 E117.01013
G1 X156.784 Y164.008 E117.07882
G1 X153.856 Y161.098 E117.14747
G1 X151.978 Y157.436 E117.21592
G1 X151.331 Y153.376 E117.28429
G1 X151.978 Y149.314 E117.35269
G1 X153.856 Y145.652 E117.42113
G1 X154.596 Y144.916 E117.43849
G1 X152.819 Y143.15 E117.48015
G1 X141.475 Y143.15 E117.6688
G1 X141.475 Y213.1 E118.83207
G0 F3600 X141.405 Y213.17
G0 X153.901 Y213.128
G0 X153.901 Y225.504
G0 X222.955 Y225.504
G0 X223.024 Y210.818
G0 X223.124 Y210.818
G1 F1800 X225.421 Y213.1 E118.88592
G1 X235.38 Y213.1 E119.05154
G1 X235.38 Y143.15 E120.21481
G1 X222.927 Y143.15 E120.42191
G1 X222.927 Y130.776 E120.62769
G1 X153.929 Y130.776 E121.77513
G1 X153.929 Y142.054 E121.96268
G1 X155.702 Y143.817 E122.00426
G1 X156.784 Y142.742 E122.02963
G1 X160.47 Y140.877 E122.09833
G1 X164.56 Y140.234 E122.16718
G1 X168.651 Y140.877 E122.23605
G1 X172.335 Y142.742 E122.30471
G1 X175.265 Y145.653 E122.3734
G1 X177.141 Y149.312 E122.44178
G1 X177.788 Y153.376 E122.51022
G1 X177.141 Y157.438 E122.57862
G1 X175.265 Y161.097 E122.647
G1 X174.178 Y162.178 E122.6725
G1 X204.649 Y192.458 E123.38688
G1 X205.557 Y191.556 E123.40817
G1 X209.243 Y189.689 E123.47688
G1 X213.334 Y189.046 E123.54575
G1 X217.424 Y189.689 E123.6146
G1 X221.11 Y191.556 E123.68332
G1 X224.038 Y194.465 E123.75196
G1 X225.915 Y198.126 E123.82037
G1 X226.563 Y202.188 E123.88878
G1 X225.915 Y206.25 E123.95718
G1 X224.039 Y209.91 E124.02558
G1 X223.124 Y210.818 E124.04702
G0 F3600 X223.692 Y210.818
;TYPE:WALL-OUTER
G1 F1800 X225.586 Y212.7 E124.09142
G1 X234.98 Y212.7 E124.24764
G1 X234.98 Y143.55 E125.39761
G1 X222.527 Y143.55 E125.60471
G1 X222.527 Y131.176 E125.81049
G1 X154.329 Y131.176 E126.94462
G1 X154.329 Y141.888 E127.12277
G1 X155.702 Y143.253 E127.15496
G1 X156.547 Y142.413 E127.17478
G1 X160.344 Y140.492 E127.24554
G1 X164.56 Y139.829 E127.31652
G1 X168.777 Y140.492 E127.38751
G1 X172.572 Y142.413 E127.45824
G1 X175.591 Y145.413 E127.52902
G1 X177.526 Y149.187 E127.59955
G1 X178.193 Y153.376 E127.67009
G1 X177.526 Y157.563 E127.7406
G1 X175.591 Y161.337 E127.81113
G1 X174.745 Y162.178 E127.83097
G1 X204.649 Y191.894 E128.53206
G1 X205.32 Y191.227 E128.54779
G1 X209.117 Y189.304 E128.61857
G1 X213.334 Y188.641 E128.68956
G1 X217.55 Y189.304 E128.76054
G1 X221.347 Y191.227 E128.83132
G1 X224.365 Y194.226 E128.90207
G1 X226.3 Y197.999 E128.97259
G1 X226.968 Y202.188 E129.04313
G1 X226.3 Y206.375 E129.11364
G1 X224.365 Y210.15 E129.18419
G1 X223.692 Y210.818 E129.19996
G0 F3600 X223.833 Y210.958
G0 X223.48 Y211.312
G0 X222.955 Y225.504
G0 X153.901 Y225.504
G0 X153.901 Y213.128
G0 X141.447 Y213.128
G0 X141.875 Y212.7
G1 F1800 X154.329 Y212.7 E129.40707
G1 X154.329 Y225.076 E129.61288
G1 X222.527 Y225.076 E130.74702
G1 X222.527 Y212.986 E130.94808
G1 X222.019 Y212.481 E130.95999
G1 X221.347 Y213.149 E130.97575
G1 X217.55 Y215.07 E131.04651
G1 X213.334 Y215.735 E131.11749
G1 X209.117 Y215.07 E131.18849
G1 X205.32 Y213.149 E131.25925
G1 X202.302 Y210.15 E131.33001
G1 X200.368 Y206.375 E131.40055
G1 X199.701 Y202.188 E131.47106
G1 X200.368 Y197.999 E131.5416
G1 X202.302 Y194.226 E131.6121
G1 X202.976 Y193.557 E131.6279
G1 X173.072 Y163.84 E132.329
G1 X172.572 Y164.337 E132.34072
G1 X168.777 Y166.258 E132.41146
G1 X164.56 Y166.923 E132.48245
G1 X160.344 Y166.258 E132.55343
G1 X156.547 Y164.337 E132.6242
G1 X153.529 Y161.337 E132.69497
G1 X151.593 Y157.563 E132.7655
G1 X150.926 Y153.376 E132.83601
G1 X151.593 Y149.187 E132.90655
G1 X153.529 Y145.413 E132.97709
G1 X154.029 Y144.916 E132.98882
G1 X152.654 Y143.55 E133.02105
G1 X141.875 Y143.55 E133.2003
G1 X141.875 Y212.7 E134.35027
G0 F3600 X142.075 Y212.7
G0 X142.075 Y213.2
G0 X127.496 Y213.132
G0 X127.484 Y225.504
G0 X57.045 Y225.504
G0 X57.037 Y214.179
G0 X58.672 Y212.564
G0 X58.672 Y213.168
G1 F1800 X57.473 Y214.36 E134.37839
G1 X57.473 Y225.076 E134.5566
G1 X127.056 Y225.076 E135.71377
G1 X127.056 Y212.7 E135.91958
G1 X139.508 Y212.7 E136.12666
G1 X139.508 Y143.55 E137.27663
G1 X128.73 Y143.55 E137.45587
G1 X127.182 Y145.088 E137.49216
G1 X127.854 Y145.756 E137.50791
G1 X129.79 Y149.531 E137.57847
G1 X130.457 Y153.718 E137.64897
G1 X129.79 Y157.907 E137.71951
G1 X127.854 Y161.681 E137.79005
G1 X124.837 Y164.679 E137.86078
G1 X121.041 Y166.602 E137.93155
G1 X116.823 Y167.265 E138.00256
G1 X112.607 Y166.602 E138.07353
G1 X108.811 Y164.679 E138.1443
G1 X108.139 Y164.012 E138.16004
G1 X77.716 Y194.244 E138.8733
G1 X78.389 Y194.913 E138.88908
G1 X80.325 Y198.687 E138.95962
G1 X80.991 Y202.876 E139.03016
G1 X80.325 Y207.063 E139.10067
G1 X78.389 Y210.837 E139.1712
G1 X75.371 Y213.837 E139.24197
G1 X71.575 Y215.758 E139.31272
G1 X67.358 Y216.423 E139.38372
G1 X63.142 Y215.758 E139.4547
G1 X59.345 Y213.837 E139.52546
G1 X58.672 Y213.168 E139.54124
G0 F3600 X58.531 Y213.309
G0 X58.179 Y212.955
G0 X57.037 Y214.179
G0 X56.973 Y227.426
G0 X57.473 Y227.426
G1 F1800 X57.473 Y239.8 E139.74702
G1 X30.2 Y239.8 E140.20058
G1 X30.2 Y212.7 E140.65125
G1 X42.652 Y212.7 E140.85833
G1 X42.652 Y143.55 E142.0083
G1 X30.2 Y143.55 E142.21537
G1 X30.2 Y116.45 E142.66605
G1 X42.652 Y116.45 E142.87313
G1 X42.652 Y47.3 E144.0231
G1 X30.2 Y47.3 E144.23017
G1 X30.2 Y20.2 E144.68085
G1 X57.473 Y20.2 E145.1344
G1 X57.473 Y32.574 E145.34018
G1 X127.056 Y32.574 E146.49735
G1 X127.056 Y20.2 E146.70313
G1 X154.329 Y20.2 E147.15668
G1 X154.329 Y32.574 E147.36246
G1 X222.527 Y32.574 E148.4966
G1 X222.527 Y20.2 E148.70238
G1 X249.8 Y20.2 E149.15593
G1 X249.8 Y47.3 E149.60661
G1 X237.348 Y47.3 E149.81369
G1 X237.348 Y116.45 E150.96366
G1 X249.8 Y116.45 E151.17073
G1 X249.8 Y143.55 E151.62141
G1 X237.348 Y143.55 E151.82849
G1 X237.348 Y212.7 E152.97845
G1 X249.8 Y212.7 E153.18553
G1 X249.8 Y239.8 E153.63621
G1 X222.527 Y239.8 E154.08976
G1 X222.527 Y227.426 E154.29554
G1 X154.329 Y227.426 E155.42968
G1 X154.329 Y239.8 E155.63546
G1 X127.056 Y239.8 E156.08901
G1 X127.056 Y227.426 E156.29479
G1 X57.473 Y227.426 E157.45196
G0 F3600 X57.473 Y227.626
G0 X56.973 Y227.626
G0 X56.111 Y214.062
G0 X44.592 Y213.128
G0 X44.52 Y143.55
G0 X45.02 Y143.55
G1 F1800 X45.02 Y212.7 E158.60193
G1 X55.797 Y212.7 E158.78115
G1 X57 Y211.506 E158.80934
G1 X56.327 Y210.837 E158.82512
G1 X54.392 Y207.06 E158.89569
G1 X53.723 Y202.876 E158.96616
G1 X54.392 Y198.69 E159.03665
G1 X56.327 Y194.913 E159.10723
G1 X59.345 Y191.913 E159.178
G1 X63.142 Y189.992 E159.24876
G1 X67.358 Y189.329 E159.31974
G1 X71.575 Y189.992 E159.39073
G1 X75.371 Y191.913 E159.46148
G1 X76.043 Y192.581 E159.47724
G1 X106.465 Y162.35 E160.19047
G1 X105.792 Y161.681 E160.20625
G1 X103.858 Y157.907 E160.27678
G1 X103.19 Y153.718 E160.34732
G1 X103.858 Y149.531 E160.41783
G1 X105.792 Y145.756 E160.48837
G1 X108.811 Y142.757 E160.55913
G1 X112.607 Y140.836 E160.62989
G1 X116.823 Y140.171 E160.70086
G1 X121.041 Y140.836 E160.77188
G1 X124.837 Y142.757 E160.84263
G1 X125.509 Y143.425 E160.85839
G1 X127.056 Y141.888 E160.89465
G1 X127.056 Y131.176 E161.07279
G1 X57.473 Y131.176 E162.22996
G1 X57.473 Y143.55 E162.43574
G1 X45.02 Y143.55 E162.64284
G0 F3600 X45.02 Y143.75
G0 X44.52 Y143.75
G0 X44.52 Y142.2
G0 X56.111 Y142.188
G0 X56.111 Y117.812
G0 X44.52 Y117.8
G0 X44.52 Y116.45
G0 X45.02 Y116.45
G1 F1800 X57.473 Y116.45 E162.84993
G1 X57.473 Y128.824 E163.05571
G1 X127.056 Y128.824 E164.21288
G1 X127.056 Y118.112 E164.39102
G1 X125.855 Y116.918 E164.41919
G1 X125.182 Y117.587 E164.43497
G1 X121.387 Y119.508 E164.5057
G1 X117.169 Y120.171 E164.57671
G1 X112.953 Y119.508 E164.64768
G1 X109.157 Y117.587 E164.71843
G1 X106.139 Y114.587 E164.7892
G1 X104.204 Y110.813 E164.85973
G1 X103.536 Y106.624 E164.93028
G1 X104.204 Y102.437 E165.00079
G1 X106.139 Y98.663 E165.07132
G1 X106.812 Y97.994 E165.0871
G1 X76.043 Y67.418 E165.80847
G1 X75.371 Y68.087 E165.82424
G1 X71.575 Y70.008 E165.89499
G1 X67.358 Y70.671 E165.96598
G1 X63.142 Y70.008 E166.03696
G1 X59.345 Y68.087 E166.10772
G1 X56.327 Y65.087 E166.17849
G1 X54.392 Y61.31 E166.24906
G1 X53.723 Y57.124 E166.31956
G1 X54.392 Y52.94 E166.39003
G1 X56.327 Y49.163 E166.4606
G1 X57 Y48.494 E166.47638
G1 X55.798 Y47.3 E166.50456
G1 X45.02 Y47.3 E166.6838
G1 X45.02 Y116.45 E167.83376
G0 F3600 X45.22 Y116.45
G0 X45.22 Y116.95
G0 X57.045 Y116.878
G0 X57.045 Y129.252
G0 X127.484 Y129.252
G0 X127.492 Y117.931
G0 X127.176 Y115.609
G0 X127.528 Y115.256
G1 F1800 X128.73 Y116.45 E167.86194
G1 X139.508 Y116.45 E168.04118
G1 X139.508 Y47.3 E169.19115
G1 X127.056 Y47.3 E169.39823
G1 X127.056 Y34.924 E169.60404
G1 X57.473 Y34.924 E170.76121
G1 X57.473 Y45.638 E170.93938
G1 X58.673 Y46.831 E170.96752
G1 X59.345 Y46.163 E170.98328
G1 X63.142 Y44.242 E171.05405
G1 X67.358 Y43.577 E171.12503
G1 X71.575 Y44.242 E171.19602
G1 X75.371 Y46.163 E171.26677
G1 X78.389 Y49.163 E171.33754
G1 X80.325 Y52.937 E171.40808
G1 X80.991 Y57.124 E171.47858
G1 X80.325 Y61.313 E171.54912
G1 X78.389 Y65.087 E171.61966
G1 X77.716 Y65.756 E171.63544
G1 X108.485 Y96.331 E172.3568
G1 X109.157 Y95.663 E172.37256
G1 X112.953 Y93.742 E172.44331
G1 X117.169 Y93.077 E172.51429
G1 X121.387 Y93.742 E172.5853
G1 X125.182 Y95.663 E172.65604
G1 X128.2 Y98.663 E172.72681
G1 X130.136 Y102.437 E172.79734
G1 X130.803 Y106.624 E172.86785
G1 X130.136 Y110.813 E172.93839
G1 X128.2 Y114.587 E173.00893
G1 X127.528 Y115.256 E173.0247
G0 F3600 X127.669 Y115.396
G0 X127.317 Y115.749
G0 X128.55 Y116.886
G0 X152.833 Y116.886
G0 X155.529 Y116.315
G0 X155.529 Y116.919
G1 F1800 X154.329 Y118.111 E173.05283
G1 X154.329 Y128.824 E173.23099
G1 X222.527 Y128.824 E174.36512
G1 X222.527 Y116.45 E174.5709
G1 X234.98 Y116.45 E174.778
G1 X234.98 Y47.3 E175.92797
G1 X225.585 Y47.3 E176.08421
G1 X223.691 Y49.181 E176.1286
G1 X224.365 Y49.85 E176.14439
G1 X226.3 Y53.625 E176.21494
G1 X226.968 Y57.812 E176.28545
G1 X226.3 Y62.001 E176.35599
G1 X224.365 Y65.774 E176.42651
G1 X221.347 Y68.773 E176.49726
G1 X217.55 Y70.696 E176.56804
G1 X213.334 Y71.359 E176.63902
G1 X209.117 Y70.696 E176.71001
G1 X205.32 Y68.773 E176.78079
G1 X204.648 Y68.105 E176.79655
G1 X174.572 Y97.994 E177.50169
G1 X175.245 Y98.663 E177.51747
G1 X177.18 Y102.437 E177.588
G1 X177.847 Y106.624 E177.65851
G1 X177.18 Y110.813 E177.72905
G1 X175.245 Y114.587 E177.79958
G1 X172.226 Y117.587 E177.87036
G1 X168.431 Y119.508 E177.9411
G1 X164.214 Y120.171 E178.01209
G1 X159.998 Y119.508 E178.08306
G1 X156.201 Y117.587 E178.15383
G1 X155.529 Y116.919 E178.16959
G0 F3600 X155.388 Y117.059
G0 X155.037 Y116.705
G0 X152.833 Y116.886
G0 X141.447 Y116.878
G0 X141.375 Y47.3
G0 X141.875 Y47.3
G1 F1800 X141.875 Y116.45 E179.31955
G1 X152.653 Y116.45 E179.49879
G1 X153.856 Y115.256 E179.52698
G1 X153.183 Y114.587 E179.54276
G1 X151.248 Y110.813 E179.61329
G1 X150.58 Y106.624 E179.68384
G1 X151.248 Y102.437 E179.75435
G1 X153.183 Y98.663 E179.82488
G1 X156.201 Y95.663 E179.89564
G1 X159.998 Y93.742 E179.96641
G1 X164.214 Y93.077 E180.03739
G1 X168.431 Y93.742 E180.10838
G1 X172.226 Y95.663 E180.17912
G1 X172.899 Y96.331 E180.19489
G1 X202.975 Y66.443 E180.90002
G1 X202.302 Y65.774 E180.9158
G1 X200.368 Y62.001 E180.98631
G1 X199.701 Y57.812 E181.05685
G1 X200.368 Y53.625 E181.12736
G1 X202.302 Y49.85 E181.1979
G1 X205.32 Y46.851 E181.26866
G1 X209.117 Y44.93 E181.33942
G1 X213.334 Y44.265 E181.41042
G1 X217.55 Y44.93 E181.4814
G1 X221.347 Y46.851 E181.55216
G1 X222.018 Y47.518 E181.5679
G1 X222.527 Y47.013 E181.57982
G1 X222.527 Y34.924 E181.78086
G1 X154.329 Y34.924 E182.915
G1 X154.329 Y47.3 E183.12081
G1 X141.875 Y47.3 E183.32792
G0 F3600 X141.875 Y47.5
G0 X141.375 Y47.5
G0 X153.139 Y46.11
;TYPE:SKIN
G1 F1800 X128.246 Y46.11 E183.74189
G1 X128.246 Y21.39 E184.15299
G1 X153.139 Y21.39 E184.56696
G1 X153.139 Y46.11 E184.97806
G0 F3600 X153.901 Y34.496
G0 X222.955 Y34.496
G0 X222.963 Y47.195
G0 X222.018 Y48.122
G0 X213.334 Y44.71
G0 X205.58 Y47.212
G0 X201.701 Y52.517
G0 X200.907 Y57.812
G1 F1800 X201.514 Y53.995 E185.04233
G1 X203.272 Y50.564 E185.10644
G1 X206.026 Y47.829 E185.17099
G1 X209.488 Y46.077 E185.23552
G1 X213.334 Y45.471 E185.30026
G1 X217.179 Y46.077 E185.365
G1 X220.641 Y47.829 E185.42952
G1 X223.395 Y50.564 E185.49407
G1 X225.154 Y53.995 E185.55819
G1 X225.762 Y57.812 E185.62247
G1 X225.154 Y61.629 E185.68674
G1 X223.394 Y65.061 E185.75088
G1 X220.639 Y67.797 E185.81545
G1 X217.182 Y69.548 E185.8799
G1 X213.334 Y70.153 E185.94468
G1 X209.485 Y69.548 E186.00947
G1 X206.028 Y67.797 E186.07392
G1 X203.272 Y65.06 E186.13851
G1 X201.514 Y61.631 E186.20259
G1 X200.907 Y57.812 E186.2669
G0 F3600 X201.669 Y54.044
G0 X203.403 Y50.661
G0 X206.123 Y47.96
G0 X209.535 Y46.233
G0 X213.334 Y45.634
G0 X217.132 Y46.233
G0 X220.544 Y47.96
G0 X223.717 Y47.478
G1 F1800 X223.717 Y21.39 E186.70075
G1 X248.61 Y21.39 E187.11472
G1 X248.61 Y46.11 E187.52581
G1 X225.095 Y46.11 E187.91687
G1 X223.717 Y47.478 E187.94916
G0 F3600 X225.405 Y46.864
G0 X235.408 Y46.872
G0 X235.408 Y116.878
G0 X223.717 Y117.64
G1 F1800 X248.61 Y117.64 E188.36313
G1 X248.61 Y142.36 E188.77423
G1 X223.717 Y142.36 E189.1882
G1 X223.717 Y117.64 E189.59929
G0 F3600 X222.955 Y129.252
G0 X153.901 Y129.252
G0 X153.893 Y117.93
G0 X155.529 Y116.315
G0 X164.214 Y119.726
G0 X171.966 Y117.226
G0 X176.757 Y110.676
G0 X176.757 Y102.574
G0 X174.144 Y99.474
G0 X171.423 Y96.772
G0 X168.013 Y95.045
G0 X164.214 Y94.446
G0 X160.369 Y94.889
G1 F1800 X164.214 Y94.283 E189.66403
G1 X168.06 Y94.889 E189.72878
G1 X171.52 Y96.641 E189.79327
G1 X172.9 Y98.008 E189.82557
G1 X174.275 Y99.377 E189.85784
G1 X176.034 Y102.807 E189.92195
G1 X176.641 Y106.624 E189.98622
G1 X176.034 Y110.443 E190.05053
G1 X174.275 Y113.873 E190.11463
G1 X171.52 Y116.609 E190.1792
G1 X168.06 Y118.361 E190.2437
G1 X164.214 Y118.965 E190.30844
G1 X160.369 Y118.361 E190.37317
G1 X156.907 Y116.609 E190.43769
G1 X154.153 Y113.873 E190.50225
G1 X152.394 Y110.443 E190.56636
G1 X151.786 Y106.624 E190.63067
G1 X152.394 Y102.807 E190.69495
G1 X154.153 Y99.377 E190.75905
G1 X156.907 Y96.641 E190.82361
G1 X160.369 Y94.889 E190.88813
G0 F3600 X157.004 Y96.772
G0 X154.284 Y99.474
G0 X152.549 Y102.856
G0 X151.949 Y106.624
G0 X152.549 Y110.394
G0 X154.464 Y115.256
G0 X153.139 Y117.64
G1 F1800 X153.139 Y142.36 E191.29923
G1 X128.246 Y142.36 E191.7132
G1 X128.246 Y117.64 E192.1243
G1 X153.139 Y117.64 E192.53827
G0 F3600 X153.893 Y142.069
G0 X155.702 Y143.857
G0 X160.715 Y141.639
G1 F1800 X164.56 Y141.035 E192.603
G1 X168.406 Y141.639 E192.66774
G1 X171.866 Y143.391 E192.73224
G1 X174.621 Y146.127 E192.79681
G1 X176.38 Y149.557 E192.86091
G1 X176.987 Y153.376 E192.92522
G1 X176.38 Y157.193 E192.98949
G1 X174.621 Y160.623 E193.0536
G1 X171.866 Y163.359 E193.11817
G1 X168.406 Y165.111 E193.18266
G1 X164.56 Y165.717 E193.24741
G1 X160.715 Y165.111 E193.31214
G1 X157.253 Y163.359 E193.37667
G1 X154.501 Y160.625 E193.44118
G1 X152.739 Y157.189 E193.5054
G1 X152.132 Y153.376 E193.56961
G1 X152.739 Y149.561 E193.63385
G1 X154.501 Y146.125 E193.69806
G1 X157.253 Y143.391 E193.76257
G1 X160.715 Y141.639 E193.8271
G0 F3600 X155.702 Y143.857
G0 X152.967 Y142.188
G0 X128.418 Y142.188
G0 X125.509 Y144.029
G0 X120.67 Y141.983
G1 F1800 X124.131 Y143.735 E193.89161
G1 X125.51 Y145.102 E193.9239
G1 X126.883 Y146.469 E193.95612
G1 X128.644 Y149.903 E194.0203
G1 X129.251 Y153.718 E194.08454
G1 X128.644 Y157.533 E194.14879
G1 X126.882 Y160.969 E194.213
G1 X124.129 Y163.703 E194.27753
G1 X120.673 Y165.454 E194.34195
G1 X116.824 Y166.059 E194.40675
G1 X112.975 Y165.454 E194.47154
G1 X109.519 Y163.703 E194.53597
G1 X108.139 Y162.334 E194.5683
G1 X106.762 Y160.967 E194.60057
G1 X105.004 Y157.537 E194.66466
G1 X104.396 Y153.718 E194.72897
G1 X105.004 Y149.901 E194.79325
G1 X106.762 Y146.47 E194.85736
G1 X109.517 Y143.735 E194.92192
G1 X112.978 Y141.983 E194.98643
G1 X116.823 Y141.377 E195.05117
G1 X120.67 Y141.983 E195.11593
G0 F3600 X125.509 Y144.029
G0 X127.492 Y142.069
G0 X127.492 Y117.931
G0 X125.855 Y116.314
G0 X128.835 Y110.39
G0 X129.434 Y106.624
G0 X128.835 Y102.86
G0 X127.097 Y99.472
G0 X124.379 Y96.772
G0 X121.016 Y94.889
G1 F1800 X124.476 Y96.641 E195.18043
G1 X127.228 Y99.375 E195.24494
G1 X128.99 Y102.811 E195.30915
G1 X129.597 Y106.624 E195.37336
G1 X128.99 Y110.439 E195.4376
G1 X127.227 Y113.877 E195.50186
G1 X124.476 Y116.609 E195.56633
G1 X121.016 Y118.361 E195.63083
G1 X117.17 Y118.965 E195.69557
G1 X113.324 Y118.361 E195.76032
G1 X109.863 Y116.609 E195.82483
G1 X107.109 Y113.873 E195.88939
G1 X105.35 Y110.443 E195.95349
G1 X104.742 Y106.624 E196.0178
G1 X105.35 Y102.807 E196.08208
G1 X107.109 Y99.377 E196.14618
G1 X109.863 Y96.641 E196.21074
G1 X113.324 Y94.889 E196.27525
G1 X117.169 Y94.283 E196.33998
G1 X121.016 Y94.889 E196.40475
G0 F3600 X117.169 Y93.522
G0 X108.485 Y96.935
G0 X77.109 Y65.756
G0 X79.004 Y61.21
G0 X79.785 Y57.124
G1 F1800 X79.179 Y60.939 E196.46899
G1 X77.417 Y64.375 E196.5332
G1 X74.669 Y67.107 E196.59764
G1 X71.204 Y68.861 E196.66223
G1 X67.358 Y69.465 E196.72697
G1 X63.513 Y68.861 E196.7917
G1 X60.051 Y67.109 E196.85623
G1 X57.297 Y64.373 E196.92078
G1 X55.537 Y60.937 E196.98498
G1 X54.928 Y57.124 E197.0492
G1 X55.537 Y53.313 E197.11338
G1 X57.297 Y49.877 E197.17758
G1 X60.051 Y47.141 E197.24214
G1 X63.513 Y45.389 E197.30667
G1 X67.358 Y44.783 E197.3714
G1 X71.204 Y45.389 E197.43615
G1 X74.665 Y47.141 E197.50066
G1 X77.417 Y49.875 E197.56517
G1 X79.179 Y53.311 E197.62938
G1 X79.785 Y57.124 E197.69359
G0 F3600 X79.024 Y53.36
G0 X77.286 Y49.972
G0 X74.568 Y47.272
G0 X71.157 Y45.545
G0 X67.358 Y44.946
G0 X63.56 Y45.545
G0 X58.673 Y47.435
G0 X56.283 Y46.11
G1 F1800 X31.39 Y46.11 E198.10756
G1 X31.39 Y21.39 E198.51866
G1 X56.283 Y21.39 E198.93263
G1 X56.283 Y46.11 E199.34373
G0 F3600 X44.592 Y46.872
G0 X44.592 Y116.878
G0 X56.283 Y117.64
G1 F1800 X56.283 Y142.36 E199.75482
G1 X31.39 Y142.36 E200.16879
G1 X31.39 Y117.64 E200.57989
G1 X56.283 Y117.64 E200.99386
G0 F3600 X57.045 Y143.122
G0 X44.592 Y143.122
G0 X44.592 Y213.128
G0 X55.977 Y213.136
G0 X57.608 Y211.506
G0 X54.168 Y202.876
G0 X56.685 Y195.176
G0 X63.28 Y190.415
G0 X65.48 Y190.397
G0 X71.204 Y191.139
G1 F1800 X74.665 Y192.891 E201.05837
G1 X76.044 Y194.258 E201.09066
G1 X77.417 Y195.625 E201.12288
G1 X79.179 Y199.061 E201.1871
G1 X79.785 Y202.876 E201.25134
G1 X79.179 Y206.689 E201.31554
G1 X77.417 Y210.125 E201.37976
G1 X74.665 Y212.859 E201.44427
G1 X71.204 Y214.611 E201.50878
G1 X67.358 Y215.217 E201.57353
G1 X63.513 Y214.611 E201.63826
G1 X60.051 Y212.859 E201.70279
G1 X57.297 Y210.123 E201.76735
G1 X55.537 Y206.687 E201.83155
G1 X54.928 Y202.876 E201.89573
G1 X55.537 Y199.063 E201.95994
G1 X57.297 Y195.627 E202.02415
G1 X60.051 Y192.891 E202.0887
G1 X63.513 Y191.139 E202.15323
G1 X67.358 Y190.535 E202.21796
G1 X71.204 Y191.139 E202.2827
G0 F3600 X67.358 Y190.698
G0 X63.56 Y191.295
G0 X60.148 Y193.022
G0 X57.428 Y195.724
G0 X55.691 Y199.115
G0 X55.09 Y202.876
G0 X55.691 Y206.635
G0 X57.428 Y210.026
G0 X58.108 Y210.701
G0 X56.283 Y213.89
G1 F1800 X56.283 Y238.61 E202.69379
G1 X31.39 Y238.61 E203.10777
G1 X31.39 Y213.89 E203.51886
G1 X56.283 Y213.89 E203.93283
G0 F3600 X57.045 Y225.504
G0 X127.484 Y225.504
G0 X127.496 Y213.89
G0 X153.139 Y213.89
G1 F1800 X153.139 Y238.61 E204.34393
G1 X128.246 Y238.61 E204.7579
G1 X128.246 Y213.89 E205.169
G1 X153.139 Y213.89 E205.58297
G0 F3600 X153.901 Y225.504
G0 X222.955 Y225.504
G0 X222.963 Y212.805
G0 X222.019 Y211.877
G0 X213.334 Y215.29
G0 X205.58 Y212.788
G0 X200.791 Y206.238
G0 X200.791 Y198.136
G0 X203.584 Y193.557
G0 X209.485 Y190.452
G1 F1800 X213.334 Y189.847 E205.64776
G1 X217.182 Y190.452 E205.71254
G1 X220.639 Y192.203 E205.77699
G1 X223.394 Y194.939 E205.84156
G1 X225.154 Y198.371 E205.9057
G1 X225.762 Y202.188 E205.96998
G1 X225.154 Y206.005 E206.03425
G1 X223.395 Y209.436 E206.09837
G1 X220.641 Y212.171 E206.16292
G1 X217.179 Y213.923 E206.22745
G1 X213.334 Y214.529 E206.29218
G1 X209.488 Y213.923 E206.35693
G1 X206.026 Y212.171 E206.42145
G1 X203.272 Y209.436 E206.486
G1 X201.514 Y206.005 E206.55011
G1 X200.907 Y202.188 E206.61438
G1 X201.514 Y198.369 E206.67869
G1 X203.272 Y194.94 E206.74277
G1 X206.028 Y192.203 E206.80737
G1 X209.485 Y190.452 E206.87181
G0 F3600 X213.334 Y190.01
G0 X217.135 Y190.608
G0 X220.542 Y192.334
G0 X223.263 Y195.036
G0 X224.999 Y198.42
G0 X225.599 Y202.188
G0 X224.999 Y205.956
G0 X223.264 Y209.339
G0 X223.717 Y212.521
G1 F1800 X225.096 Y213.89 E206.90413
G1 X248.61 Y213.89 E207.29517
G1 X248.61 Y238.61 E207.70626
G1 X223.717 Y238.61 E208.12023
G1 X223.717 Y212.521 E208.5541
G0 F3600 X225.406 Y213.136
G0 X235.408 Y213.128
G0 X235.408 Y143.122
G0 X223.889 Y142.188
G0 X223.889 Y117.812
G0 X236.02 Y117.799
G0 X236.92 Y46.872
G0 X248.438 Y45.938
G0 X248.51 Y21.649
G0 X248.489 Y21.649
G1 F1800 X248.35 Y21.51 E208.55736
G0 F3600 X247.784 Y21.51
G1 F1800 X248.489 Y22.215 E208.57395
G0 F3600 X248.489 Y22.78
G1 F1800 X247.218 Y21.51 E208.60383
G0 F3600 X246.652 Y21.51
G1 F1800 X248.489 Y23.346 E208.64702
G0 F3600 X248.489 Y23.912
G1 F1800 X246.087 Y21.51 E208.70351
G0 F3600 X245.521 Y21.51
G1 F1800 X248.489 Y24.477 E208.7733
G0 F3600 X248.489 Y25.043
G1 F1800 X244.955 Y21.51 E208.8564
G0 F3600 X244.39 Y21.51
G1 F1800 X248.489 Y25.609 E208.9528
G0 F3600 X248.489 Y26.174
G1 F1800 X243.824 Y21.51 E209.06251
G0 F3600 X243.258 Y21.51
G1 F1800 X248.489 Y26.74 E209.18552
G0 F3600 X248.489 Y27.306
G1 F1800 X242.693 Y21.51 E209.32183
G0 F3600 X242.127 Y21.51
G1 F1800 X248.489 Y27.872 E209.47146
G0 F3600 X248.489 Y28.437
G1 F1800 X241.561 Y21.51 E209.63438
G0 F3600 X240.996 Y21.51
G1 F1800 X248.489 Y29.003 E209.81061
G0 F3600 X248.489 Y29.569
G1 F1800 X240.43 Y21.51 E210.00014
G0 F3600 X239.864 Y21.51
G1 F1800 X248.489 Y30.134 E210.20298
G0 F3600 X248.489 Y30.7
G1 F1800 X239.299 Y21.51 E210.41911
G0 F3600 X238.733 Y21.51
G1 F1800 X248.489 Y31.266 E210.64856
G0 F3600 X248.489 Y31.831
G1 F1800 X238.167 Y21.51 E210.8913
G0 F3600 X237.602 Y21.51
G1 F1800 X248.489 Y32.397 E211.14735
G0 F3600 X248.489 Y32.963
G1 F1800 X237.036 Y21.51 E211.4167
G0 F3600 X236.47 Y21.51
G1 F1800 X248.489 Y33.528 E211.69936
G0 F3600 X248.489 Y34.094
G1 F1800 X235.904 Y21.51 E211.99533
G0 F3600 X235.339 Y21.51
G1 F1800 X248.489 Y34.66 E212.3046
G0 F3600 X248.489 Y35.225
G1 F1800 X234.773 Y21.51 E212.62717
G0 F3600 X234.207 Y21.51
G1 F1800 X248.489 Y35.791 E212.96304
G0 F3600 X248.489 Y36.357
G1 F1800 X233.642 Y21.51 E213.31222
G0 F3600 X233.076 Y21.51
G1 F1800 X248.489 Y36.922 E213.6747
G0 F3600 X248.489 Y37.488
G1 F1800 X232.51 Y21.51 E214.05049
G0 F3600 X231.945 Y21.51
G1 F1800 X248.489 Y38.054 E214.43958
G0 F3600 X248.489 Y38.62
G1 F1800 X231.379 Y21.51 E214.84198
G0 F3600 X230.813 Y21.51
G1 F1800 X248.489 Y39.185 E215.25768
G0 F3600 X248.489 Y39.751
G1 F1800 X230.248 Y21.51 E215.68668
G0 F3600 X229.682 Y21.51
G1 F1800 X248.489 Y40.317 E216.12899
G0 F3600 X248.489 Y40.882
G1 F1800 X229.116 Y21.51 E216.58461
G0 F3600 X228.551 Y21.51
G1 F1800 X248.489 Y41.448 E217.05352
G0 F3600 X248.489 Y42.014
G1 F1800 X227.985 Y21.51 E217.53574
G0 F3600 X227.419 Y21.51
G1 F1800 X248.489 Y42.579 E218.03126
G0 F3600 X248.489 Y43.145
G1 F1800 X226.853 Y21.51 E218.5401
G0 F3600 X226.288 Y21.51
G1 F1800 X248.489 Y43.711 E219.06223
G0 F3600 X248.489 Y44.276
G1 F1800 X225.722 Y21.51 E219.59766
G0 F3600 X225.156 Y21.51
G1 F1800 X248.489 Y44.842 E220.14641
G0 F3600 X248.489 Y45.408
G1 F1800 X224.591 Y21.51 E220.70845
G0 F3600 X224.025 Y21.51
G1 F1800 X248.489 Y45.973 E221.2838
G0 F3600 X247.939 Y45.989
G1 F1800 X223.836 Y21.886 E221.85066
G0 F3600 X223.836 Y22.452
G1 F1800 X247.373 Y45.989 E222.40422
G0 F3600 X246.807 Y45.989
G1 F1800 X223.836 Y23.017 E222.94447
G0 F3600 X223.836 Y23.583
G1 F1800 X246.242 Y45.989 E223.47142
G0 F3600 X245.676 Y45.989
G1 F1800 X223.836 Y24.149 E223.98507
G0 F3600 X223.836 Y24.714
G1 F1800 X245.11 Y45.989 E224.48541
G0 F3600 X244.545 Y45.989
G1 F1800 X223.836 Y25.28 E224.97246
G0 F3600 X223.836 Y25.846
G1 F1800 X243.979 Y45.989 E225.44619
G0 F3600 X243.413 Y45.989
G1 F1800 X223.836 Y26.411 E225.90662
G0 F3600 X223.836 Y26.977
G1 F1800 X242.848 Y45.989 E226.35375
G0 F3600 X242.282 Y45.989
G1 F1800 X223.836 Y27.543 E226.78758
G0 F3600 X223.836 Y28.108
G1 F1800 X241.716 Y45.989 E227.2081
G0 F3600 X241.15 Y45.989
G1 F1800 X223.836 Y28.674 E227.61531
G0 F3600 X223.836 Y29.24
G1 F1800 X240.585 Y45.989 E228.00922
G0 F3600 X240.019 Y45.989
G1 F1800 X223.836 Y29.805 E228.38983
G0 F3600 X223.836 Y30.371
G1 F1800 X239.453 Y45.989 E228.75713
G0 F3600 X238.888 Y45.989
G1 F1800 X223.836 Y30.937 E229.11113
G0 F3600 X223.836 Y31.503
G1 F1800 X238.322 Y45.989 E229.45182
G0 F3600 X237.756 Y45.989
G1 F1800 X223.836 Y32.068 E229.77921
G0 F3600 X223.836 Y32.634
G1 F1800 X237.191 Y45.989 E230.0933
G0 F3600 X236.625 Y45.989
G1 F1800 X223.836 Y33.2 E230.39407
G0 F3600 X223.836 Y33.765
G1 F1800 X236.059 Y45.989 E230.68155
G0 F3600 X235.494 Y45.989
G1 F1800 X223.836 Y34.331 E230.95573
G0 F3600 X223.836 Y34.897
G1 F1800 X234.928 Y45.989 E231.2166
G0 F3600 X234.362 Y45.989
G1 F1800 X223.836 Y35.462 E231.46416
G0 F3600 X223.836 Y36.028
G1 F1800 X233.797 Y45.989 E231.69843
G0 F3600 X233.231 Y45.989
G1 F1800 X223.836 Y36.594 E231.91939
G0 F3600 X223.836 Y37.159
G1 F1800 X232.665 Y45.989 E232.12704
G0 F3600 X232.1 Y45.989
G1 F1800 X223.836 Y37.725 E232.3214
G0 F3600 X223.836 Y38.291
G1 F1800 X231.534 Y45.989 E232.50245
G0 F3600 X230.968 Y45.989
G1 F1800 X223.836 Y38.856 E232.67019
G0 F3600 X223.836 Y39.422
G1 F1800 X230.402 Y45.989 E232.82462
G0 F3600 X229.837 Y45.989
G1 F1800 X223.836 Y39.988 E232.96576
G0 F3600 X223.836 Y40.553
G1 F1800 X229.271 Y45.989 E233.09359
G0 F3600 X228.705 Y45.989
G1 F1800 X223.836 Y41.119 E233.20812
G0 F3600 X223.836 Y41.685
G1 F1800 X228.14 Y45.989 E233.30934
G0 F3600 X227.574 Y45.989
G1 F1800 X223.836 Y42.251 E233.39725
G0 F3600 X223.836 Y42.816
G1 F1800 X227.008 Y45.989 E233.47186
G0 F3600 X226.443 Y45.989
G1 F1800 X223.836 Y43.382 E233.53318
G0 F3600 X223.836 Y43.948
G1 F1800 X225.877 Y45.989 E233.58118
G0 F3600 X225.311 Y45.989
G1 F1800 X223.836 Y44.513 E233.61588
G0 F3600 X223.836 Y45.079
G1 F1800 X224.895 Y46.138 E233.64079
G0 F3600 X224.611 Y46.42
G1 F1800 X223.836 Y45.645 E233.65901
G0 F3600 X223.836 Y46.21
G1 F1800 X224.327 Y46.702 E233.67057
G0 F3600 X224.043 Y46.983
G1 F1800 X223.836 Y46.776 E233.67544
G0 F3600 X223.817 Y46.776
G0 X222.018 Y48.122
G0 X220.359 Y47.799
G0 X220.35 Y47.815
G1 F1800 X223.428 Y50.894 E233.74784
G1 X223.498 Y50.964
G0 F3600 X224.042 Y52.047
G0 X224.024 Y52.056
G1 F1800 X219.205 Y47.236 E233.86119
G1 X219.135 Y47.166
G0 F3600 X218.069 Y46.64
G0 X218.06 Y46.657
G1 F1800 X224.62 Y53.218 E234.01548
G1 X224.69 Y53.288
G0 F3600 X225.089 Y54.23
G0 X225.069 Y54.232
G1 F1800 X217.01 Y46.173 E234.20502
G0 F3600 X216.338 Y46.067
G1 F1800 X225.176 Y54.905 E234.41287
G0 F3600 X225.284 Y55.578
G1 F1800 X215.666 Y45.961 E234.63906
G0 F3600 X214.995 Y45.855
G1 F1800 X225.39 Y56.251 E234.88355
G0 F3600 X225.498 Y56.924
G1 F1800 X214.324 Y45.749 E235.14636
G0 F3600 X213.653 Y45.644
G1 F1800 X225.605 Y57.596 E235.42745
G0 F3600 X225.586 Y58.143
G1 F1800 X213.077 Y45.634 E235.72164
G0 F3600 X212.588 Y45.71
G1 F1800 X225.509 Y58.631 E236.02552
G0 F3600 X225.431 Y59.119
G1 F1800 X212.099 Y45.787 E236.33907
G0 F3600 X211.61 Y45.865
G1 F1800 X225.353 Y59.607 E236.66227
G0 F3600 X225.275 Y60.095
G1 F1800 X211.122 Y45.942 E236.99513
G0 F3600 X210.633 Y46.019
G1 F1800 X225.198 Y60.584 E237.33768
G0 F3600 X225.12 Y61.072
G1 F1800 X210.145 Y46.096 E237.68988
G0 F3600 X209.656 Y46.173
G1 F1800 X225.043 Y61.56 E238.05176
G0 F3600 X224.859 Y61.941
G1 F1800 X209.249 Y46.331 E238.41888
G0 F3600 X208.873 Y46.521
G1 F1800 X224.666 Y62.315 E238.79032
G0 F3600 X224.475 Y62.689
G1 F1800 X208.498 Y46.712 E239.16607
G0 F3600 X208.122 Y46.902
G1 F1800 X224.283 Y63.063 E239.54616
G0 F3600 X224.092 Y63.437
G1 F1800 X207.746 Y47.091 E239.93059
G0 F3600 X207.371 Y47.282
G1 F1800 X223.9 Y63.811 E240.31933
G0 F3600 X223.708 Y64.184
G1 F1800 X206.995 Y47.472 E240.71238
G0 F3600 X206.62 Y47.662
G1 F1800 X223.516 Y64.558 E241.10975
G0 F3600 X223.324 Y64.932
G1 F1800 X206.243 Y47.852 E241.51145
G0 F3600 X205.925 Y48.098
G1 F1800 X223.054 Y65.227 E241.9143
G0 F3600 X222.77 Y65.509
G1 F1800 X205.64 Y48.38 E242.31716
G0 F3600 X205.357 Y48.662
G1 F1800 X222.486 Y65.791 E242.72001
G0 F3600 X222.202 Y66.073
G1 F1800 X205.073 Y48.944 E243.12286
G0 F3600 X204.789 Y49.225
G1 F1800 X221.918 Y66.354 E243.5257
G0 F3600 X221.634 Y66.637
G1 F1800 X204.505 Y49.508 E243.92855
G0 F3600 X204.222 Y49.79
G1 F1800 X221.351 Y66.919 E244.3314
G0 F3600 X221.067 Y67.2
G1 F1800 X203.938 Y50.071 E244.73425
G0 F3600 X203.654 Y50.353
G1 F1800 X220.783 Y67.482 E245.13709
G0 F3600 X220.478 Y67.742
G1 F1800 X203.37 Y50.635 E245.53944
G0 F3600 X203.177 Y51.008
G1 F1800 X220.102 Y67.933 E245.93749
G0 F3600 X219.727 Y68.123
G1 F1800 X202.986 Y51.382 E246.33121
G0 F3600 X202.794 Y51.756
G1 F1800 X219.351 Y68.313 E246.7206
G0 F3600 X218.976 Y68.503
G1 F1800 X202.603 Y52.13 E247.10567
G0 F3600 X202.411 Y52.504
G1 F1800 X218.6 Y68.694 E247.48643
G0 F3600 X218.225 Y68.884
G1 F1800 X202.219 Y52.878 E247.86286
G0 F3600 X202.027 Y53.252
G1 F1800 X217.849 Y69.074 E248.23497
G0 F3600 X217.474 Y69.264
G1 F1800 X201.835 Y53.626 E248.60276
G0 F3600 X201.644 Y54
G1 F1800 X217.083 Y69.44 E248.96588
G0 F3600 X216.595 Y69.517
G1 F1800 X201.557 Y54.479 E249.31955
G0 F3600 X201.48 Y54.967
G1 F1800 X216.106 Y69.594 E249.66354
G0 F3600 X215.618 Y69.671
G1 F1800 X201.402 Y55.455 E249.99788
G0 F3600 X201.324 Y55.943
G1 F1800 X215.129 Y69.748 E250.32255
G0 F3600 X214.64 Y69.824
G1 F1800 X201.247 Y56.432 E250.63752
G0 F3600 X201.169 Y56.919
G1 F1800 X214.151 Y69.901 E250.94284
G0 F3600 X213.662 Y69.978
G1 F1800 X201.091 Y57.407 E251.23849
G0 F3600 X201.046 Y57.928
G1 F1800 X213.114 Y69.996 E251.52231
G0 F3600 X212.443 Y69.891
G1 F1800 X201.153 Y58.6 E251.78785
G0 F3600 X201.26 Y59.273
G1 F1800 X211.772 Y69.785 E252.03507
G0 F3600 X211.101 Y69.679
G1 F1800 X201.367 Y59.945 E252.264
G0 F3600 X201.473 Y60.618
G1 F1800 X210.429 Y69.573 E252.47462
G0 F3600 X209.758 Y69.468
G1 F1800 X201.58 Y61.29 E252.66696
G1 X201.51 Y61.22
G0 F3600 X201.938 Y62.237
G0 X201.954 Y62.23
G1 F1800 X208.781 Y69.057 E252.82752
G1 X208.851 Y69.127
G0 F3600 X207.625 Y68.494
G0 X207.635 Y68.476
G1 F1800 X202.55 Y63.391 E252.94711
G1 X202.48 Y63.321
G0 F3600 X203.129 Y64.56
G0 X203.145 Y64.552
G1 F1800 X206.49 Y67.897 E253.02578
G1 X206.56 Y67.967
G0 F3600 X204.648 Y67.501
G0 X173.965 Y97.994
G0 X174.254 Y99.557
G0 X174.236 Y99.565
G1 F1800 X171.369 Y96.698 E253.0932
G1 X171.299 Y96.628
G0 F3600 X170.233 Y96.101
G0 X170.223 Y96.119
G1 F1800 X174.831 Y100.726 E253.20157
G1 X174.901 Y100.796
G0 F3600 X175.445 Y101.879
G0 X175.427 Y101.888
G1 F1800 X169.079 Y95.54 E253.35086
G1 X169.009 Y95.47
G0 F3600 X167.974 Y94.979
G0 X167.971 Y94.998
G1 F1800 X175.935 Y102.962 E253.53816
G0 F3600 X176.043 Y103.635
G1 F1800 X167.3 Y94.892 E253.74378
G0 F3600 X166.628 Y94.786
G1 F1800 X176.15 Y104.308 E253.96773
G0 F3600 X176.257 Y104.981
G1 F1800 X165.956 Y94.68 E254.20999
G0 F3600 X165.284 Y94.574
G1 F1800 X176.364 Y105.653 E254.47056
G0 F3600 X176.471 Y106.326
G1 F1800 X164.613 Y94.468 E254.74945
G0 F3600 X164.016 Y94.436
G1 F1800 X176.475 Y106.896 E255.04247
G0 F3600 X176.398 Y107.384
G1 F1800 X163.527 Y94.514 E255.34517
G0 F3600 X163.039 Y94.591
G1 F1800 X176.32 Y107.872 E255.65752
G0 F3600 X176.242 Y108.36
G1 F1800 X162.55 Y94.668 E255.97953
G0 F3600 X162.061 Y94.745
G1 F1800 X176.165 Y108.849 E256.31124
G0 F3600 X176.087 Y109.337
G1 F1800 X161.573 Y94.822 E256.65259
G0 F3600 X161.083 Y94.898
G1 F1800 X176.01 Y109.824 E257.00364
G0 F3600 X175.933 Y110.313
G1 F1800 X160.595 Y94.975 E257.36437
G0 F3600 X160.175 Y95.121
G1 F1800 X175.762 Y110.708 E257.73095
G0 F3600 X175.571 Y111.082
G1 F1800 X159.799 Y95.311 E258.10187
G0 F3600 X159.424 Y95.501
G1 F1800 X175.379 Y111.456 E258.47711
G0 F3600 X175.187 Y111.831
G1 F1800 X159.048 Y95.691 E258.85669
G0 F3600 X158.672 Y95.881
G1 F1800 X174.996 Y112.205 E259.2406
G0 F3600 X174.803 Y112.578
G1 F1800 X158.297 Y96.071 E259.62881
G0 F3600 X157.921 Y96.261
G1 F1800 X174.612 Y112.952 E260.02136
G0 F3600 X174.42 Y113.326
G1 F1800 X157.545 Y96.451 E260.41823
G0 F3600 X157.17 Y96.641
G1 F1800 X174.228 Y113.7 E260.81942
G0 F3600 X173.968 Y114.006
G1 F1800 X156.839 Y96.877 E261.22227
G0 F3600 X156.555 Y97.158
G1 F1800 X173.685 Y114.288 E261.62514
G0 F3600 X173.401 Y114.57
G1 F1800 X156.272 Y97.44 E262.028
G0 F3600 X155.988 Y97.722
G1 F1800 X173.117 Y114.851 E262.43085
G0 F3600 X172.833 Y115.133
G1 F1800 X155.704 Y98.004 E262.83369
G0 F3600 X155.42 Y98.286
G1 F1800 X172.549 Y115.415 E263.23654
G0 F3600 X172.266 Y115.697
G1 F1800 X155.137 Y98.568 E263.63939
G0 F3600 X154.852 Y98.849
G1 F1800 X171.981 Y115.978 E264.04224
G0 F3600 X171.698 Y116.261
G1 F1800 X154.569 Y99.132 E264.44509
G0 F3600 X154.285 Y99.414
G1 F1800 X171.404 Y116.532 E264.84769
G0 F3600 X171.028 Y116.722
G1 F1800 X154.081 Y99.775 E265.24625
G0 F3600 X153.889 Y100.149
G1 F1800 X170.653 Y116.913 E265.64052
G0 F3600 X170.277 Y117.103
G1 F1800 X153.698 Y100.523 E266.03044
G0 F3600 X153.506 Y100.897
G1 F1800 X169.902 Y117.293 E266.41605
G0 F3600 X169.526 Y117.483
G1 F1800 X153.314 Y101.271 E266.79733
G0 F3600 X153.122 Y101.645
G1 F1800 X169.15 Y117.673 E267.17429
G0 F3600 X168.775 Y117.863
G1 F1800 X152.93 Y102.019 E267.54692
G0 F3600 X152.739 Y102.393
G1 F1800 X168.399 Y118.053 E267.91522
G0 F3600 X168.024 Y118.243
G1 F1800 X152.546 Y102.766 E268.27923
G0 F3600 X152.446 Y103.231
G1 F1800 X167.534 Y118.32 E268.63409
G0 F3600 X167.046 Y118.397
G1 F1800 X152.368 Y103.719 E268.97929
G0 F3600 X152.291 Y104.207
G1 F1800 X166.557 Y118.474 E269.31482
G0 F3600 X166.068 Y118.55
G1 F1800 X152.213 Y104.695 E269.64067
G0 F3600 X152.136 Y105.184
G1 F1800 X165.579 Y118.627 E269.95683
G0 F3600 X165.091 Y118.704
G1 F1800 X152.058 Y105.672 E270.26333
G0 F3600 X151.98 Y106.16
G1 F1800 X164.601 Y118.781 E270.56016
G0 F3600 X164.075 Y118.82
G1 F1800 X151.911 Y106.657 E270.84622
G0 F3600 X152.019 Y107.33
G1 F1800 X163.404 Y118.715 E271.11398
G0 F3600 X162.733 Y118.61
G1 F1800 X152.126 Y108.002 E271.36345
G0 F3600 X152.233 Y108.675
G1 F1800 X162.062 Y118.504 E271.59462
G0 F3600 X161.391 Y118.399
G1 F1800 X152.34 Y109.348 E271.80748
G0 F3600 X152.447 Y110.021
G1 F1800 X160.72 Y118.294 E272.00205
G1 X160.79 Y118.364
G0 F3600 X159.791 Y117.956
G0 X159.8 Y117.939
G1 F1800 X152.764 Y110.903 E272.16753
G1 X152.694 Y110.833
G0 F3600 X153.342 Y112.072
G0 X153.359 Y112.064
G1 F1800 X158.654 Y117.359 E272.29206
G1 X158.724 Y117.429
G0 F3600 X157.5 Y116.797
G0 X157.509 Y116.78
G1 F1800 X153.954 Y113.225 E272.37567
G1 X153.884 Y113.155
G0 F3600 X154.464 Y115.256
G0 X152.832 Y117.74
G0 X152.832 Y117.76
G1 F1800 X153.017 Y117.945 E272.38002
G0 F3600 X153.017 Y118.511
G1 F1800 X152.266 Y117.76 E272.39768
G0 F3600 X151.701 Y117.76
G1 F1800 X153.017 Y119.076 E272.42863
G0 F3600 X153.017 Y119.642
G1 F1800 X151.135 Y117.76 E272.47289
G0 F3600 X150.569 Y117.76
G1 F1800 X153.017 Y120.208 E272.53046
G0 F3600 X153.017 Y120.773
G1 F1800 X150.004 Y117.76 E272.60133
G0 F3600 X149.438 Y117.76
G1 F1800 X153.017 Y121.339 E272.6855
G0 F3600 X153.017 Y121.905
G1 F1800 X148.872 Y117.76 E272.78298
G0 F3600 X148.307 Y117.76
G1 F1800 X153.017 Y122.47 E272.89375
G0 F3600 X153.017 Y123.036
G1 F1800 X147.741 Y117.76 E273.01784
G0 F3600 X147.175 Y117.76
G1 F1800 X153.017 Y123.602 E273.15523
G0 F3600 X153.017 Y124.167
G1 F1800 X146.61 Y117.76 E273.30592
G0 F3600 X146.044 Y117.76
G1 F1800 X153.017 Y124.733 E273.46991
G0 F3600 X153.017 Y125.299
G1 F1800 X145.478 Y117.76 E273.64722
G0 F3600 X144.913 Y117.76
G1 F1800 X153.017 Y125.865 E273.83782
G0 F3600 X153.017 Y126.43
G1 F1800 X144.347 Y117.76 E274.04173
G0 F3600 X143.781 Y117.76
G1 F1800 X153.017 Y126.996 E274.25894
G0 F3600 X153.017 Y127.562
G1 F1800 X143.215 Y117.76 E274.48947
G0 F3600 X142.65 Y117.76
G1 F1800 X153.017 Y128.127 E274.73329
G0 F3600 X153.017 Y128.693
G1 F1800 X142.084 Y117.76 E274.99041
G0 F3600 X141.518 Y117.76
G1 F1800 X153.017 Y129.259 E275.26085
G0 F3600 X153.017 Y129.824
G1 F1800 X140.953 Y117.76 E275.54458
G0 F3600 X140.387 Y117.76
G1 F1800 X153.017 Y130.39 E275.84162
G0 F3600 X153.017 Y130.956
G1 F1800 X139.821 Y117.76 E276.15197
G0 F3600 X139.256 Y117.76
G1 F1800 X153.017 Y131.521 E276.47561
G0 F3600 X153.017 Y132.087
G1 F1800 X138.69 Y117.76 E276.81255
G0 F3600 X138.124 Y117.76
G1 F1800 X153.017 Y132.653 E277.16281
G0 F3600 X153.017 Y133.218
G1 F1800 X137.559 Y117.76 E277.52636
G0 F3600 X136.993 Y117.76
G1 F1800 X153.017 Y133.784 E277.90322
G0 F3600 X153.017 Y134.35
G1 F1800 X136.427 Y117.76 E278.29339
G0 F3600 X135.862 Y117.76
G1 F1800 X153.017 Y134.915 E278.69685
G0 F3600 X153.017 Y135.481
G1 F1800 X135.296 Y117.76 E279.11362
G0 F3600 X134.73 Y117.76
G1 F1800 X153.017 Y136.047 E279.54371
G0 F3600 X153.017 Y136.613
G1 F1800 X134.165 Y117.76 E279.98709
G0 F3600 X133.599 Y117.76
G1 F1800 X153.017 Y137.178 E280.44377
G0 F3600 X153.017 Y137.744
G1 F1800 X133.033 Y117.76 E280.91376
G0 F3600 X132.467 Y117.76
G1 F1800 X153.017 Y138.31 E281.39707
G0 F3600 X153.017 Y138.875
G1 F1800 X131.902 Y117.76 E281.89366
G0 F3600 X131.336 Y117.76
G1 F1800 X153.017 Y139.441 E282.40356
G0 F3600 X153.017 Y140.007
G1 F1800 X130.77 Y117.76 E282.92678
G0 F3600 X130.205 Y117.76
G1 F1800 X153.017 Y140.572 E283.46328
G0 F3600 X153.017 Y141.138
G1 F1800 X129.639 Y117.76 E284.0131
G0 F3600 X129.073 Y117.76
G1 F1800 X153.017 Y141.704 E284.57622
G0 F3600 X152.987 Y142.239
G1 F1800 X128.508 Y117.76 E285.15193
G0 F3600 X128.365 Y118.182
G1 F1800 X152.421 Y142.239 E285.7177
G0 F3600 X151.856 Y142.239
G1 F1800 X128.365 Y118.748 E286.27018
G0 F3600 X128.365 Y119.314
G1 F1800 X151.29 Y142.239 E286.80934
G0 F3600 X150.724 Y142.239
G1 F1800 X128.365 Y119.88 E287.33519
G0 F3600 X128.365 Y120.445
G1 F1800 X150.159 Y142.239 E287.84775
G0 F3600 X149.593 Y142.239
G1 F1800 X128.365 Y121.011 E288.347
G0 F3600 X128.365 Y121.577
G1 F1800 X149.027 Y142.239 E288.83294
G0 F3600 X148.462 Y142.239
G1 F1800 X128.365 Y122.142 E289.30559
G0 F3600 X128.365 Y122.708
G1 F1800 X147.896 Y142.239 E289.76493
G0 F3600 X147.33 Y142.239
G1 F1800 X128.365 Y123.274 E290.21095
G0 F3600 X128.365 Y123.839
G1 F1800 X146.764 Y142.239 E290.64368
G0 F3600 X146.199 Y142.239
G1 F1800 X128.365 Y124.405 E291.06311
G0 F3600 X128.365 Y124.971
G1 F1800 X145.633 Y142.239 E291.46923
G0 F3600 X145.067 Y142.239
G1 F1800 X128.365 Y125.536 E291.86204
G0 F3600 X128.365 Y126.102
G1 F1800 X144.502 Y142.239 E292.24156
G0 F3600 X143.936 Y142.239
G1 F1800 X128.365 Y126.668 E292.60777
G0 F3600 X128.365 Y127.233
G1 F1800 X143.37 Y142.239 E292.96067
G0 F3600 X142.805 Y142.239
G1 F1800 X128.365 Y127.799 E293.30028
G0 F3600 X128.365 Y128.365
G1 F1800 X142.239 Y142.239 E293.62658
G0 F3600 X141.673 Y142.239
G1 F1800 X128.365 Y128.931 E293.93956
G0 F3600 X128.365 Y129.496
G1 F1800 X141.108 Y142.239 E294.23926
G0 F3600 X140.542 Y142.239
G1 F1800 X128.365 Y130.062 E294.52564
G0 F3600 X128.365 Y130.628
G1 F1800 X139.976 Y142.239 E294.79871
G0 F3600 X139.411 Y142.239
G1 F1800 X128.365 Y131.193 E295.0585
G0 F3600 X128.365 Y131.759
G1 F1800 X138.845 Y142.239 E295.30497
G0 F3600 X138.279 Y142.239
G1 F1800 X128.365 Y132.325 E295.53813
G0 F3600 X128.365 Y132.89
G1 F1800 X137.713 Y142.239 E295.758
G0 F3600 X137.148 Y142.239
G1 F1800 X128.365 Y133.456 E295.96456
G0 F3600 X128.365 Y134.022
G1 F1800 X136.582 Y142.239 E296.15781
G0 F3600 X136.016 Y142.239
G1 F1800 X128.365 Y134.587 E296.33776
G0 F3600 X128.365 Y135.153
G1 F1800 X135.451 Y142.239 E296.50441
G0 F3600 X134.885 Y142.239
G1 F1800 X128.365 Y135.719 E296.65775
G0 F3600 X128.365 Y136.284
G1 F1800 X134.319 Y142.239 E296.79779
G0 F3600 X133.754 Y142.239
G1 F1800 X128.365 Y136.85 E296.92454
G0 F3600 X128.365 Y137.416
G1 F1800 X133.188 Y142.239 E297.03797
G0 F3600 X132.622 Y142.239
G1 F1800 X128.365 Y137.981 E297.1381
G0 F3600 X128.365 Y138.547
G1 F1800 X132.057 Y142.239 E297.22493
G0 F3600 X131.491 Y142.239
G1 F1800 X128.365 Y139.113 E297.29844
G0 F3600 X128.365 Y139.679
G1 F1800 X130.925 Y142.239 E297.35865
G0 F3600 X130.36 Y142.239
G1 F1800 X128.365 Y140.244 E297.40557
G0 F3600 X128.365 Y140.81
G1 F1800 X129.794 Y142.239 E297.43918
G0 F3600 X129.228 Y142.239
G1 F1800 X128.365 Y141.376 E297.45948
G0 F3600 X128.365 Y141.941
G1 F1800 X128.663 Y142.239 E297.46648
G0 F3600 X128.663 Y142.26
G0 X126.575 Y145.088
G0 X126.848 Y146.622
G0 X126.831 Y146.63
G1 F1800 X124.006 Y143.805 E297.53292
G1 X123.936 Y143.735
G0 F3600 X122.87 Y143.209
G0 X122.861 Y143.225
G1 F1800 X127.427 Y147.792 E297.64032
G1 X127.497 Y147.862
G0 F3600 X128.04 Y148.945
G0 X128.023 Y148.953
G1 F1800 X121.715 Y142.646 E297.78866
G1 X121.645 Y142.576
G0 F3600 X120.6 Y142.075
G0 X120.597 Y142.093
G1 F1800 X128.544 Y150.04 E297.97556
G0 F3600 X128.651 Y150.713
G1 F1800 X119.926 Y141.987 E298.18077
G0 F3600 X119.254 Y141.881
G1 F1800 X128.758 Y151.385 E298.40429
G0 F3600 X128.865 Y152.058
G1 F1800 X118.583 Y141.776 E298.64611
G0 F3600 X117.911 Y141.67
G1 F1800 X128.972 Y152.731 E298.90625
G0 F3600 X129.079 Y153.403
G1 F1800 X117.239 Y141.564 E299.1847
G0 F3600 X116.637 Y141.528
G1 F1800 X129.087 Y153.978 E299.4775
G0 F3600 X129.01 Y154.466
G1 F1800 X116.149 Y141.605 E299.77997
G0 F3600 X115.66 Y141.682
G1 F1800 X128.932 Y154.953 E300.0921
G0 F3600 X128.855 Y155.442
G1 F1800 X115.172 Y141.759 E300.4139
G0 F3600 X114.683 Y141.836
G1 F1800 X128.777 Y155.93 E300.74537
G0 F3600 X128.699 Y156.418
G1 F1800 X114.194 Y141.913 E301.0865
G0 F3600 X113.706 Y141.99
G1 F1800 X128.622 Y156.906 E301.43731
G0 F3600 X128.544 Y157.394
G1 F1800 X113.217 Y142.067 E301.79777
G0 F3600 X112.794 Y142.209
G1 F1800 X128.376 Y157.792 E302.16425
G0 F3600 X128.185 Y158.166
G1 F1800 X112.418 Y142.399 E302.53507
G0 F3600 X112.043 Y142.59
G1 F1800 X127.993 Y158.54 E302.91019
G0 F3600 X127.801 Y158.914
G1 F1800 X111.667 Y142.78 E303.28963
G0 F3600 X111.292 Y142.97
G1 F1800 X127.609 Y159.287 E303.67338
G0 F3600 X127.417 Y159.661
G1 F1800 X110.916 Y143.16 E304.06146
G0 F3600 X110.54 Y143.35
G1 F1800 X127.226 Y160.035 E304.45388
G0 F3600 X127.034 Y160.41
G1 F1800 X110.165 Y143.54 E304.85062
G0 F3600 X109.789 Y143.73
G1 F1800 X126.842 Y160.784 E305.2517
G0 F3600 X126.585 Y161.092
G1 F1800 X109.457 Y143.964 E305.65452
G0 F3600 X109.173 Y144.245
G1 F1800 X126.301 Y161.374 E306.05736
G0 F3600 X126.018 Y161.656
G1 F1800 X108.889 Y144.527 E306.4602
G0 F3600 X108.605 Y144.809
G1 F1800 X125.734 Y161.938 E306.86305
G0 F3600 X125.45 Y162.22
G1 F1800 X108.321 Y145.091 E307.2659
G0 F3600 X108.038 Y145.373
G1 F1800 X125.166 Y162.501 E307.66872
G0 F3600 X124.882 Y162.783
G1 F1800 X107.753 Y145.654 E308.07157
G0 F3600 X107.47 Y145.936
G1 F1800 X124.598 Y163.065 E308.47441
G0 F3600 X124.315 Y163.347
G1 F1800 X107.186 Y146.218 E308.87726
G0 F3600 X106.902 Y146.5
G1 F1800 X124.022 Y163.62 E309.27989
G0 F3600 X123.647 Y163.811
G1 F1800 X106.696 Y146.859 E309.67857
G0 F3600 X106.504 Y147.233
G1 F1800 X123.272 Y164.001 E310.07292
G0 F3600 X122.896 Y164.191
G1 F1800 X106.312 Y147.607 E310.46295
G0 F3600 X106.121 Y147.981
G1 F1800 X122.521 Y164.381 E310.84866
G0 F3600 X122.145 Y164.572
G1 F1800 X105.929 Y148.355 E311.23004
G0 F3600 X105.737 Y148.73
G1 F1800 X121.77 Y164.762 E311.6071
G0 F3600 X121.394 Y164.952
G1 F1800 X105.546 Y149.104 E311.97982
G0 F3600 X105.354 Y149.478
G1 F1800 X121.019 Y165.142 E312.34823
G0 F3600 X120.643 Y165.332
G1 F1800 X105.162 Y149.851 E312.71232
G0 F3600 X105.059 Y150.313
G1 F1800 X120.157 Y165.412 E313.06741
G0 F3600 X119.667 Y165.488
G1 F1800 X104.982 Y150.802 E313.41279
G0 F3600 X104.904 Y151.29
G1 F1800 X119.179 Y165.565 E313.74852
G0 F3600 X118.69 Y165.642
G1 F1800 X104.826 Y151.778 E314.07458
G0 F3600 X104.748 Y152.266
G1 F1800 X118.202 Y165.719 E314.39098
G0 F3600 X117.713 Y165.796
G1 F1800 X104.67 Y152.754 E314.69772
G0 F3600 X104.593 Y153.242
G1 F1800 X117.224 Y165.873 E314.99479
G0 F3600 X116.703 Y165.917
G1 F1800 X104.52 Y153.735 E315.2813
G0 F3600 X104.627 Y154.408
G1 F1800 X116.031 Y165.811 E315.54949
G0 F3600 X115.36 Y165.706
G1 F1800 X104.735 Y155.081 E315.79938
G0 F3600 X104.842 Y155.753
G1 F1800 X114.688 Y165.6 E316.03095
G0 F3600 X114.017 Y165.494
G1 F1800 X104.949 Y156.426 E316.24422
G0 F3600 X105.056 Y157.099
G1 F1800 X113.346 Y165.389 E316.43918
G1 X113.416 Y165.459
G0 F3600 X112.428 Y165.065
G0 X112.438 Y165.047
G1 F1800 X105.361 Y157.969 E316.60564
G1 X105.291 Y157.899
G0 F3600 X105.938 Y159.138
G0 X105.955 Y159.13
G1 F1800 X111.291 Y164.465 E316.73112
G1 X111.361 Y164.535
G0 F3600 X110.135 Y163.903
G0 X110.145 Y163.885
G1 F1800 X106.55 Y160.29 E316.81567
G1 X106.48 Y160.22
G0 F3600 X105.159 Y157.488
G0 X104.559 Y153.718
G0 X105.159 Y149.95
G0 X106.893 Y146.567
G0 X109.499 Y142.892
G0 X116.823 Y140.616
G0 X125.509 Y144.029
G0 X127.492 Y142.069
G0 X127.492 Y117.931
G0 X125.855 Y116.314
G0 X118.82 Y119.077
G0 X113.781 Y118.329
G0 X113.784 Y118.309
G1 F1800 X105.387 Y109.913 E317.01314
G0 F3600 X105.28 Y109.24
G1 F1800 X114.455 Y118.414 E317.22891
G0 F3600 X115.126 Y118.52
G1 F1800 X105.172 Y108.567 E317.463
G0 F3600 X105.066 Y107.894
G1 F1800 X115.797 Y118.626 E317.71539
G0 F3600 X116.468 Y118.731
G1 F1800 X104.958 Y107.221 E317.98609
G0 F3600 X104.872 Y106.569
G1 F1800 X117.14 Y118.837 E318.27461
G0 F3600 X117.637 Y118.768
G1 F1800 X104.949 Y106.08 E318.57301
G0 F3600 X105.027 Y105.592
G1 F1800 X118.125 Y118.691 E318.88107
G0 F3600 X118.615 Y118.615
G1 F1800 X105.105 Y105.105 E319.19881
G0 F3600 X105.182 Y104.617
G1 F1800 X119.103 Y118.537 E319.52619
G0 F3600 X119.592 Y118.461
G1 F1800 X105.259 Y104.128 E319.86328
G0 F3600 X105.337 Y103.64
G1 F1800 X120.081 Y118.384 E320.21004
G0 F3600 X120.57 Y118.308
G1 F1800 X105.415 Y103.152 E320.56647
G0 F3600 X105.534 Y102.705
G1 F1800 X121.041 Y118.212 E320.93118
G0 F3600 X121.417 Y118.023
G1 F1800 X105.726 Y102.332 E321.3002
G0 F3600 X105.918 Y101.958
G1 F1800 X121.792 Y117.832 E321.67354
G0 F3600 X122.168 Y117.642
G1 F1800 X106.109 Y101.584 E322.05121
G0 F3600 X106.301 Y101.21
G1 F1800 X122.543 Y117.452 E322.43319
G0 F3600 X122.919 Y117.262
G1 F1800 X106.493 Y100.836 E322.81951
G0 F3600 X106.685 Y100.462
G1 F1800 X123.294 Y117.072 E323.21014
G0 F3600 X123.67 Y116.881
G1 F1800 X106.877 Y100.088 E323.60508
G0 F3600 X107.068 Y99.714
G1 F1800 X124.045 Y116.691 E324.00436
G0 F3600 X124.416 Y116.497
G1 F1800 X107.287 Y99.368 E324.40721
G0 F3600 X107.571 Y99.086
G1 F1800 X124.7 Y116.215 E324.81005
G0 F3600 X124.983 Y115.932
G1 F1800 X107.855 Y98.804 E325.21288
G0 F3600 X108.139 Y98.522
G1 F1800 X125.268 Y115.651 E325.61573
G0 F3600 X125.551 Y115.369
G1 F1800 X108.422 Y98.24 E326.01857
G0 F3600 X108.707 Y97.959
G1 F1800 X125.836 Y115.087 E326.42141
G0 F3600 X126.119 Y114.805
G1 F1800 X108.99 Y97.676 E326.82426
G0 F3600 X109.274 Y97.394
G1 F1800 X126.403 Y114.524 E327.22712
G0 F3600 X126.687 Y114.242
G1 F1800 X109.558 Y97.113 E327.62996
G0 F3600 X109.841 Y96.831
G1 F1800 X126.971 Y113.96 E328.03282
G0 F3600 X127.214 Y113.638
G1 F1800 X110.187 Y96.61 E328.43328
G0 F3600 X110.563 Y96.421
G1 F1800 X127.406 Y113.264 E328.82941
G0 F3600 X127.598 Y112.89
G1 F1800 X110.938 Y96.23 E329.22122
G0 F3600 X111.314 Y96.04
G1 F1800 X127.789 Y112.516 E329.6087
G0 F3600 X127.982 Y112.142
G1 F1800 X111.689 Y95.85 E329.99188
G0 F3600 X112.065 Y95.66
G1 F1800 X128.173 Y111.768 E330.37071
G0 F3600 X128.365 Y111.394
G1 F1800 X112.44 Y95.47 E330.74523
G0 F3600 X112.816 Y95.28
G1 F1800 X128.556 Y111.02 E331.11541
G0 F3600 X128.748 Y110.646
G1 F1800 X113.192 Y95.09 E331.48127
G0 F3600 X113.63 Y94.963
G1 F1800 X128.9 Y110.232 E331.84038
G0 F3600 X128.978 Y109.745
G1 F1800 X114.119 Y94.885 E332.18985
G0 F3600 X114.608 Y94.809
G1 F1800 X129.056 Y109.257 E332.52965
G0 F3600 X129.133 Y108.769
G1 F1800 X115.097 Y94.732 E332.85977
G0 F3600 X115.585 Y94.655
G1 F1800 X129.211 Y108.28 E333.18022
G0 F3600 X129.288 Y107.792
G1 F1800 X116.074 Y94.578 E333.49099
G0 F3600 X116.563 Y94.501
G1 F1800 X129.366 Y107.304 E333.7921
G0 F3600 X129.444 Y106.816
G1 F1800 X117.051 Y94.424 E334.08355
G0 F3600 X117.678 Y94.485
G1 F1800 X129.41 Y106.217 E334.35947
G0 F3600 X129.302 Y105.544
G1 F1800 X118.35 Y94.591 E334.61705
G0 F3600 X119.022 Y94.697
G1 F1800 X129.196 Y104.871 E334.85633
G0 F3600 X129.088 Y104.198
G1 F1800 X119.693 Y94.803 E335.07729
G0 F3600 X120.365 Y94.909
G1 F1800 X128.981 Y103.525 E335.27992
G0 F3600 X128.874 Y102.852
G1 F1800 X121.075 Y95.054 E335.46333
G1 X121.005 Y94.984
G0 F3600 X122.231 Y95.616
G0 X122.221 Y95.634
G1 F1800 X128.281 Y101.694 E335.60585
G1 X128.351 Y101.764
G0 F3600 X127.704 Y100.524
G0 X127.686 Y100.533
G1 F1800 X123.366 Y96.213 E335.70745
G1 X123.296 Y96.143
G0 F3600 X120.969 Y95.045
G0 X117.169 Y94.446
G0 X113.371 Y95.045
G0 X109.96 Y96.772
G0 X107.24 Y99.474
G0 X105.505 Y102.856
G0 X104.905 Y106.624
G0 X105.391 Y109.677
G0 X105.607 Y110.724
G0 X105.625 Y110.716
G1 F1800 X112.939 Y118.03 E335.87947
G1 X113.009 Y118.1
G0 F3600 X111.784 Y117.469
G0 X111.794 Y117.451
G1 F1800 X106.22 Y111.877 E336.01056
G1 X106.15 Y111.807
G0 F3600 X106.799 Y113.047
G0 X106.816 Y113.039
G1 F1800 X110.648 Y116.871 E336.10068
G1 X110.718 Y116.941
G0 F3600 X116.342 Y119.603
G0 X124.922 Y117.226
G0 X125.855 Y116.314
G0 X127.492 Y117.931
G0 X128.418 Y142.188
G0 X152.834 Y143.114
G0 X154.636 Y144.916
G0 X154.627 Y146.142
G0 X154.64 Y146.155
G1 F1800 X171.761 Y163.276 E336.50334
G0 F3600 X172.053 Y163.002
G1 F1800 X154.924 Y145.873 E336.90619
G0 F3600 X155.207 Y145.591
G1 F1800 X172.336 Y162.72 E337.30904
G0 F3600 X172.621 Y162.438
G1 F1800 X155.492 Y145.309 E337.71188
G0 F3600 X155.775 Y145.027
G1 F1800 X172.904 Y162.156 E338.11473
G0 F3600 X173.188 Y161.875
G1 F1800 X156.059 Y144.745 E338.51759
G0 F3600 X156.343 Y144.464
G1 F1800 X173.472 Y161.592 E338.92043
G0 F3600 X173.756 Y161.311
G1 F1800 X156.626 Y144.181 E339.3233
G0 F3600 X156.911 Y143.9
G1 F1800 X174.04 Y161.029 E339.72615
G0 F3600 X174.323 Y160.747
G1 F1800 X157.194 Y143.618 E340.12899
G0 F3600 X157.527 Y143.385
G1 F1800 X174.581 Y160.438 E340.53007
G0 F3600 X174.772 Y160.064
G1 F1800 X157.904 Y143.196 E340.92678
G0 F3600 X158.279 Y143.005
G1 F1800 X174.964 Y159.69 E341.31918
G0 F3600 X175.156 Y159.316
G1 F1800 X158.654 Y142.815 E341.70727
G0 F3600 X159.03 Y142.625
G1 F1800 X175.347 Y158.942 E342.09102
G0 F3600 X175.539 Y158.569
G1 F1800 X159.405 Y142.435 E342.47047
G0 F3600 X159.782 Y142.245
G1 F1800 X175.731 Y158.195 E342.84558
G0 F3600 X175.923 Y157.821
G1 F1800 X160.157 Y142.055 E343.21637
G0 F3600 X160.533 Y141.865
G1 F1800 X176.114 Y157.447 E343.58282
G0 F3600 X176.281 Y157.047
G1 F1800 X160.956 Y141.723 E343.94323
G0 F3600 X161.445 Y141.646
G1 F1800 X176.358 Y156.559 E344.29396
G0 F3600 X176.436 Y156.071
G1 F1800 X161.934 Y141.569 E344.63503
G0 F3600 X162.423 Y141.492
G1 F1800 X176.513 Y155.583 E344.96641
G0 F3600 X176.591 Y155.095
G1 F1800 X162.912 Y141.416 E345.28812
G0 F3600 X163.401 Y141.339
G1 F1800 X176.669 Y154.607 E345.60017
G0 F3600 X176.746 Y154.118
G1 F1800 X163.889 Y141.262 E345.90253
G0 F3600 X164.378 Y141.185
G1 F1800 X176.824 Y153.63 E346.19523
G0 F3600 X176.813 Y153.054
G1 F1800 X164.982 Y141.223 E346.47348
G0 F3600 X165.653 Y141.329
G1 F1800 X176.706 Y152.382 E346.73343
G0 F3600 X176.599 Y151.709
G1 F1800 X166.324 Y141.434 E346.97508
G0 F3600 X166.995 Y141.54
G1 F1800 X176.493 Y151.037 E347.19845
G0 F3600 X176.386 Y150.364
G1 F1800 X167.667 Y141.645 E347.4035
G0 F3600 X168.338 Y141.75
G1 F1800 X176.279 Y149.692 E347.59028
G1 X176.349 Y149.762
G0 F3600 X175.773 Y148.594
G0 X175.755 Y148.602
G1 F1800 X169.46 Y142.307 E347.73832
G1 X169.39 Y142.237
G0 F3600 X170.615 Y142.87
G0 X170.606 Y142.887
G1 F1800 X175.16 Y147.441 E347.84543
G1 X175.23 Y147.511
G0 F3600 X174.582 Y146.271
G0 X174.564 Y146.279
G1 F1800 X171.752 Y143.468 E347.91155
G1 X171.682 Y143.398
G0 F3600 X168.359 Y141.795
G0 X164.56 Y141.198
G0 X160.762 Y141.795
G0 X157.35 Y143.522
G0 X155.149 Y145.709
G0 X154.419 Y146.506
G0 X154.434 Y146.514
G1 F1800 X171.386 Y163.466 E348.31023
G0 F3600 X171.01 Y163.657
G1 F1800 X154.242 Y146.888 E348.7046
G0 F3600 X154.05 Y147.262
G1 F1800 X170.635 Y163.847 E349.09466
G0 F3600 X170.259 Y164.037
G1 F1800 X153.859 Y147.636 E349.48037
G0 F3600 X153.667 Y148.01
G1 F1800 X169.884 Y164.227 E349.86177
G0 F3600 X169.509 Y164.417
G1 F1800 X153.475 Y148.384 E350.23885
G0 F3600 X153.283 Y148.758
G1 F1800 X169.133 Y164.608 E350.61162
G0 F3600 X168.757 Y164.797
G1 F1800 X153.092 Y149.132 E350.98004
G0 F3600 X152.899 Y149.505
G1 F1800 X168.381 Y164.987 E351.34415
G0 F3600 X167.896 Y165.068
G1 F1800 X152.795 Y149.966 E351.69932
G0 F3600 X152.717 Y150.454
G1 F1800 X167.408 Y165.145 E352.04483
G0 F3600 X166.918 Y165.221
G1 F1800 X152.639 Y150.942 E352.38065
G0 F3600 X152.562 Y151.431
G1 F1800 X166.43 Y165.298 E352.70679
G0 F3600 X165.941 Y165.376
G1 F1800 X152.484 Y151.919 E353.02328
G0 F3600 X152.407 Y152.407
G1 F1800 X165.453 Y165.453 E353.3301
G0 F3600 X164.964 Y165.53
G1 F1800 X152.329 Y152.895 E353.62725
G0 F3600 X152.255 Y153.387
G1 F1800 X164.444 Y165.575 E353.91391
G0 F3600 X163.772 Y165.469
G1 F1800 X152.362 Y154.059 E354.18225
G0 F3600 X152.469 Y154.732
G1 F1800 X163.1 Y165.363 E354.43228
G0 F3600 X162.429 Y165.257
G1 F1800 X152.576 Y155.405 E354.664
G0 F3600 X152.683 Y156.077
G1 F1800 X161.757 Y165.151 E354.8774
G0 F3600 X161.086 Y165.046
G1 F1800 X152.79 Y156.75 E355.07251
G1 X152.72 Y156.68
G0 F3600 X153.077 Y157.627
G0 X153.094 Y157.619
G1 F1800 X160.179 Y164.704 E355.23914
G1 X160.249 Y164.774
G0 F3600 X159.023 Y164.143
G0 X159.033 Y164.125
G1 F1800 X153.689 Y158.78 E355.36483
G1 X153.619 Y158.71
G0 F3600 X154.268 Y159.95
G0 X154.285 Y159.942
G1 F1800 X157.889 Y163.546 E355.44959
G1 X157.959 Y163.616
G0 F3600 X153.888 Y161.075
G0 X151.371 Y153.376
G0 X154.636 Y144.916
G0 X152.834 Y143.114
G0 X141.447 Y143.122
G0 X141.447 Y213.128
G0 X152.915 Y213.99
G0 X152.915 Y214.009
G1 F1800 X153.018 Y214.112 E355.45202
G0 F3600 X153.018 Y214.678
G1 F1800 X152.349 Y214.009 E355.46775
G0 F3600 X151.784 Y214.009
G1 F1800 X153.018 Y215.244 E355.49678
G0 F3600 X153.018 Y215.809
G1 F1800 X151.218 Y214.009 E355.53912
G0 F3600 X150.652 Y214.009
G1 F1800 X153.018 Y216.375 E355.59476
G0 F3600 X153.018 Y216.941
G1 F1800 X150.086 Y214.009 E355.66372
G0 F3600 X149.521 Y214.009
G1 F1800 X153.018 Y217.506 E355.74596
G0 F3600 X153.018 Y218.072
G1 F1800 X148.955 Y214.009 E355.84152
G0 F3600 X148.389 Y214.009
G1 F1800 X153.018 Y218.638 E355.95038
G0 F3600 X153.018 Y219.203
G1 F1800 X147.824 Y214.009 E356.07254
G0 F3600 X147.258 Y214.009
G1 F1800 X153.018 Y219.769 E356.20801
G0 F3600 X153.018 Y220.335
G1 F1800 X146.692 Y214.009 E356.35678
G0 F3600 X146.127 Y214.009
G1 F1800 X153.018 Y220.9 E356.51885
G0 F3600 X153.018 Y221.466
G1 F1800 X145.561 Y214.009 E356.69423
G0 F3600 X144.995 Y214.009
G1 F1800 X153.018 Y222.032 E356.88292
G0 F3600 X153.018 Y222.597
G1 F1800 X144.43 Y214.009 E357.08489
G0 F3600 X143.864 Y214.009
G1 F1800 X153.018 Y223.163 E357.30018
G0 F3600 X153.018 Y223.729
G1 F1800 X143.298 Y214.009 E357.52878
G0 F3600 X142.733 Y214.009
G1 F1800 X153.018 Y224.294 E357.77067
G0 F3600 X153.018 Y224.86
G1 F1800 X142.167 Y214.009 E358.02587
G0 F3600 X141.601 Y214.009
G1 F1800 X153.018 Y225.426 E358.29438
G0 F3600 X153.018 Y225.992
G1 F1800 X141.035 Y214.009 E358.5762
G0 F3600 X140.47 Y214.009
G1 F1800 X153.018 Y226.557 E358.87131
G0 F3600 X153.018 Y227.123
G1 F1800 X139.904 Y214.009 E359.17973
G0 F3600 X139.338 Y214.009
G1 F1800 X153.018 Y227.689 E359.50146
G0 F3600 X153.018 Y228.254
G1 F1800 X138.773 Y214.009 E359.83648
G0 F3600 X138.207 Y214.009
G1 F1800 X153.018 Y228.82 E360.18481
G0 F3600 X153.018 Y229.386
G1 F1800 X137.641 Y214.009 E360.54646
G0 F3600 X137.076 Y214.009
G1 F1800 X153.018 Y229.951 E360.92139
G0 F3600 X153.018 Y230.517
G1 F1800 X136.51 Y214.009 E361.30963
G0 F3600 X135.944 Y214.009
G1 F1800 X153.018 Y231.083 E361.71119
G0 F3600 X153.018 Y231.648
G1 F1800 X135.379 Y214.009 E362.12603
G0 F3600 X134.813 Y214.009
G1 F1800 X153.018 Y232.214 E362.55418
G0 F3600 X153.018 Y232.78
G1 F1800 X134.247 Y214.009 E362.99565
G0 F3600 X133.682 Y214.009
G1 F1800 X153.018 Y233.345 E363.4504
G0 F3600 X153.018 Y233.911
G1 F1800 X133.116 Y214.009 E363.91846
G0 F3600 X132.55 Y214.009
G1 F1800 X153.018 Y234.477 E364.39984
G0 F3600 X153.018 Y235.043
G1 F1800 X131.985 Y214.009 E364.89452
G0 F3600 X131.419 Y214.009
G1 F1800 X153.018 Y235.608 E365.40249
G0 F3600 X153.018 Y236.174
G1 F1800 X130.853 Y214.009 E365.92378
G0 F3600 X130.287 Y214.009
G1 F1800 X153.018 Y236.74 E366.45838
G0 F3600 X153.018 Y237.305
G1 F1800 X129.722 Y214.009 E367.00626
G0 F3600 X129.156 Y214.009
G1 F1800 X153.018 Y237.871 E367.56746
G0 F3600 X153.018 Y238.437
G1 F1800 X128.59 Y214.009 E368.14197
G0 F3600 X128.366 Y214.35
G1 F1800 X152.505 Y238.489 E368.70968
G0 F3600 X151.939 Y238.489
G1 F1800 X128.366 Y214.915 E369.26409
G0 F3600 X128.366 Y215.481
G1 F1800 X151.373 Y238.489 E369.8052
G0 F3600 X150.808 Y238.489
G1 F1800 X128.366 Y216.047 E370.333
G0 F3600 X128.366 Y216.612
G1 F1800 X150.242 Y238.489 E370.8475
G0 F3600 X149.676 Y238.489
G1 F1800 X128.366 Y217.178 E371.34869
G0 F3600 X128.366 Y217.744
G1 F1800 X149.111 Y238.489 E371.83658
G0 F3600 X148.545 Y238.489
G1 F1800 X128.366 Y218.31 E372.31116
G0 F3600 X128.366 Y218.875
G1 F1800 X147.979 Y238.489 E372.77244
G0 F3600 X147.414 Y238.489
G1 F1800 X128.366 Y219.441 E373.22042
G0 F3600 X128.366 Y220.007
G1 F1800 X146.848 Y238.489 E373.65509
G0 F3600 X146.282 Y238.489
G1 F1800 X128.366 Y220.572 E374.07646
G0 F3600 X128.366 Y221.138
G1 F1800 X145.717 Y238.489 E374.48452
G0 F3600 X145.151 Y238.489
G1 F1800 X128.366 Y221.704 E374.87928
G0 F3600 X128.366 Y222.269
G1 F1800 X144.585 Y238.489 E375.26074
G0 F3600 X144.019 Y238.489
G1 F1800 X128.366 Y222.835 E375.62889
G0 F3600 X128.366 Y223.401
G1 F1800 X143.454 Y238.489 E375.98373
G0 F3600 X142.888 Y238.489
G1 F1800 X128.366 Y223.966 E376.32528
G0 F3600 X128.366 Y224.532
G1 F1800 X142.322 Y238.489 E376.65351
G0 F3600 X141.757 Y238.489
G1 F1800 X128.366 Y225.098 E376.96845
G0 F3600 X128.366 Y225.663
G1 F1800 X141.191 Y238.489 E377.27009
G0 F3600 X140.625 Y238.489
G1 F1800 X128.366 Y226.229 E377.55841
G0 F3600 X128.366 Y226.795
G1 F1800 X140.06 Y238.489 E377.83344
G0 F3600 X139.494 Y238.489
G1 F1800 X128.366 Y227.36 E378.09516
G0 F3600 X128.366 Y227.926
G1 F1800 X138.928 Y238.489 E378.34358
G0 F3600 X138.363 Y238.489
G1 F1800 X128.366 Y228.492 E378.57869
G0 F3600 X128.366 Y229.058
G1 F1800 X137.797 Y238.489 E378.80049
G0 F3600 X137.231 Y238.489
G1 F1800 X128.366 Y229.623 E379.009
G0 F3600 X128.366 Y230.189
G1 F1800 X136.666 Y238.489 E379.2042
G0 F3600 X136.1 Y238.489
G1 F1800 X128.366 Y230.755 E379.38609
G0 F3600 X128.366 Y231.32
G1 F1800 X135.534 Y238.489 E379.55468
G0 F3600 X134.969 Y238.489
G1 F1800 X128.366 Y231.886 E379.70997
G0 F3600 X128.366 Y232.452
G1 F1800 X134.403 Y238.489 E379.85196
G0 F3600 X133.837 Y238.489
G1 F1800 X128.366 Y233.017 E379.98064
G0 F3600 X128.366 Y233.583
G1 F1800 X133.271 Y238.489 E380.09601
G0 F3600 X132.706 Y238.489
G1 F1800 X128.366 Y234.149 E380.19808
G0 F3600 X128.366 Y234.714
G1 F1800 X132.14 Y238.489 E380.28685
G0 F3600 X131.574 Y238.489
G1 F1800 X128.366 Y235.28 E380.36231
G0 F3600 X128.366 Y235.846
G1 F1800 X131.009 Y238.489 E380.42447
G0 F3600 X130.443 Y238.489
G1 F1800 X128.366 Y236.411 E380.47333
G0 F3600 X128.366 Y236.977
G1 F1800 X129.877 Y238.489 E380.50887
G0 F3600 X129.312 Y238.489
G1 F1800 X128.366 Y237.543 E380.53112
G0 F3600 X128.366 Y238.109
G1 F1800 X128.746 Y238.489 E380.54006
G0 F3600 X128.746 Y238.51
G0 X127.484 Y226.998
G0 X57.045 Y225.504
G0 X57.037 Y214.179
G0 X58.672 Y212.564
G0 X67.358 Y215.978
G0 X73.637 Y213.953
G0 X77.459 Y209.821
G0 X77.442 Y209.812
G1 F1800 X60.451 Y192.822 E380.93965
G0 F3600 X60.087 Y193.023
G1 F1800 X77.216 Y210.152 E381.3425
G0 F3600 X76.933 Y210.434
G1 F1800 X59.804 Y193.306 E381.74533
G0 F3600 X59.52 Y193.588
G1 F1800 X76.648 Y210.716 E382.14816
G0 F3600 X76.365 Y210.998
G1 F1800 X59.236 Y193.869 E382.55101
G0 F3600 X58.952 Y194.151
G1 F1800 X76.081 Y211.28 E382.95385
G0 F3600 X75.797 Y211.562
G1 F1800 X58.669 Y194.433 E383.35669
G0 F3600 X58.385 Y194.715
G1 F1800 X75.514 Y211.844 E383.75954
G0 F3600 X75.23 Y212.126
G1 F1800 X58.101 Y194.997 E384.16239
G0 F3600 X57.818 Y195.279
G1 F1800 X74.946 Y212.407 E384.56521
G0 F3600 X74.662 Y212.689
G1 F1800 X57.533 Y195.56 E384.96806
G0 F3600 X57.296 Y195.889
G1 F1800 X74.309 Y212.902 E385.36818
G0 F3600 X73.934 Y213.092
G1 F1800 X57.105 Y196.263 E385.76397
G0 F3600 X56.913 Y196.637
G1 F1800 X73.558 Y213.283 E386.15545
G0 F3600 X73.183 Y213.473
G1 F1800 X56.721 Y197.011 E386.54261
G0 F3600 X56.53 Y197.386
G1 F1800 X72.807 Y213.663 E386.92542
G0 F3600 X72.431 Y213.853
G1 F1800 X56.338 Y197.76 E387.3039
G0 F3600 X56.147 Y198.134
G1 F1800 X72.056 Y214.043 E387.67806
G0 F3600 X71.68 Y214.233
G1 F1800 X55.955 Y198.508 E388.04788
G0 F3600 X55.763 Y198.882
G1 F1800 X71.305 Y214.423 E388.4134
G0 F3600 X70.857 Y214.541
G1 F1800 X55.619 Y199.303 E388.77177
G0 F3600 X55.541 Y199.791
G1 F1800 X70.369 Y214.618 E389.12049
G0 F3600 X69.88 Y214.696
G1 F1800 X55.463 Y200.278 E389.45957
G0 F3600 X55.385 Y200.766
G1 F1800 X69.391 Y214.773 E389.78898
G0 F3600 X68.903 Y214.85
G1 F1800 X55.307 Y201.254 E390.10874
G0 F3600 X55.229 Y201.742
G1 F1800 X68.414 Y214.927 E390.41883
G0 F3600 X67.926 Y215.004
G1 F1800 X55.151 Y202.229 E390.71928
G0 F3600 X55.073 Y202.717
G1 F1800 X67.437 Y215.081 E391.01006
G0 F3600 X66.795 Y215.005
G1 F1800 X55.121 Y203.331 E391.28461
G0 F3600 X55.229 Y204.004
G1 F1800 X66.123 Y214.898 E391.54082
G0 F3600 X65.452 Y214.793
G1 F1800 X55.336 Y204.677 E391.77873
G0 F3600 X55.444 Y205.35
G1 F1800 X64.78 Y214.687 E391.99832
G0 F3600 X64.109 Y214.581
G1 F1800 X55.552 Y206.024 E392.19956
G0 F3600 X55.695 Y206.733
G1 F1800 X63.36 Y214.398 E392.37983
G1 X63.43 Y214.468
G0 F3600 X62.205 Y213.837
G0 X62.215 Y213.819
G1 F1800 X56.289 Y207.893 E392.5192
G1 X56.219 Y207.823
G0 F3600 X56.865 Y209.061
G0 X56.883 Y209.053
G1 F1800 X61.07 Y213.24 E392.61767
G1 X61.14 Y213.31
G0 F3600 X58.672 Y212.564
G0 X56.183 Y214.555
G0 X56.163 Y214.555
G1 F1800 X55.617 Y214.009 E392.63052
G0 F3600 X55.051 Y214.009
G1 F1800 X56.163 Y215.12 E392.65666
G0 F3600 X56.163 Y215.686
G1 F1800 X54.486 Y214.009 E392.6961
G0 F3600 X53.92 Y214.009
G1 F1800 X56.163 Y216.252 E392.74885
G0 F3600 X56.163 Y216.818
G1 F1800 X53.354 Y214.009 E392.81491
G0 F3600 X52.789 Y214.009
G1 F1800 X56.163 Y217.383 E392.89426
G0 F3600 X56.163 Y217.949
G1 F1800 X52.223 Y214.009 E392.98693
G0 F3600 X51.657 Y214.009
G1 F1800 X56.163 Y218.515 E393.0929
G0 F3600 X56.163 Y219.08
G1 F1800 X51.092 Y214.009 E393.21216
G0 F3600 X50.526 Y214.009
G1 F1800 X56.163 Y219.646 E393.34474
G0 F3600 X56.163 Y220.212
G1 F1800 X49.96 Y214.009 E393.49062
G0 F3600 X49.394 Y214.009
G1 F1800 X56.163 Y220.777 E393.64981
G0 F3600 X56.163 Y221.343
G1 F1800 X48.829 Y214.009 E393.82229
G0 F3600 X48.263 Y214.009
G1 F1800 X56.163 Y221.909 E394.00809
G0 F3600 X56.163 Y222.474
G1 F1800 X47.697 Y214.009 E394.20718
G0 F3600 X47.132 Y214.009
G1 F1800 X56.163 Y223.04 E394.41958
G0 F3600 X56.163 Y223.606
G1 F1800 X46.566 Y214.009 E394.64528
G0 F3600 X46 Y214.009
G1 F1800 X56.163 Y224.171 E394.88429
G0 F3600 X56.163 Y224.737
G1 F1800 X45.435 Y214.009 E395.1366
G0 F3600 X44.869 Y214.009
G1 F1800 X56.163 Y225.303 E395.40221
G0 F3600 X56.163 Y225.868
G1 F1800 X44.303 Y214.009 E395.68113
G0 F3600 X43.738 Y214.009
G1 F1800 X56.163 Y226.434 E395.97335
G0 F3600 X56.163 Y227
G1 F1800 X43.172 Y214.009 E396.27888
G0 F3600 X42.606 Y214.009
G1 F1800 X56.163 Y227.566 E396.59772
G0 F3600 X56.163 Y228.131
G1 F1800 X42.041 Y214.009 E396.92984
G0 F3600 X41.475 Y214.009
G1 F1800 X56.163 Y228.697 E397.27528
G0 F3600 X56.163 Y229.263
G1 F1800 X40.909 Y214.009 E397.63403
G0 F3600 X40.343 Y214.009
G1 F1800 X56.163 Y229.828 E398.00608
G0 F3600 X56.163 Y230.394
G1 F1800 X39.778 Y214.009 E398.39143
G0 F3600 X39.212 Y214.009
G1 F1800 X56.163 Y230.96 E398.7901
G0 F3600 X56.163 Y231.525
G1 F1800 X38.646 Y214.009 E399.20206
G0 F3600 X38.081 Y214.009
G1 F1800 X56.163 Y232.091 E399.62732
G0 F3600 X56.163 Y232.657
G1 F1800 X37.515 Y214.009 E400.06589
G0 F3600 X36.949 Y214.009
G1 F1800 X56.163 Y233.222 E400.51776
G0 F3600 X56.163 Y233.788
G1 F1800 X36.384 Y214.009 E400.98293
G0 F3600 X35.818 Y214.009
G1 F1800 X56.163 Y234.354 E401.46142
G0 F3600 X56.163 Y234.919
G1 F1800 X35.252 Y214.009 E401.9532
G0 F3600 X34.687 Y214.009
G1 F1800 X56.163 Y235.485 E402.45828
G0 F3600 X56.163 Y236.051
G1 F1800 X34.121 Y214.009 E402.97668
G0 F3600 X33.555 Y214.009
G1 F1800 X56.163 Y236.617 E403.50838
G0 F3600 X56.163 Y237.182
G1 F1800 X32.99 Y214.009 E404.05338
G0 F3600 X32.424 Y214.009
G1 F1800 X56.163 Y237.748 E404.61168
G0 F3600 X56.163 Y238.314
G1 F1800 X31.858 Y214.009 E405.1833
G0 F3600 X31.51 Y214.226
G1 F1800 X55.772 Y238.488 E405.7539
G0 F3600 X55.206 Y238.488
G1 F1800 X31.51 Y214.792 E406.3112
G0 F3600 X31.51 Y215.357
G1 F1800 X54.64 Y238.488 E406.85519
G0 F3600 X54.075 Y238.488
G1 F1800 X31.51 Y215.923 E407.38588
G0 F3600 X31.51 Y216.489
G1 F1800 X53.509 Y238.488 E407.90327
G0 F3600 X52.943 Y238.488
G1 F1800 X31.51 Y217.054 E408.40735
G0 F3600 X31.51 Y217.62
G1 F1800 X52.378 Y238.488 E408.89813
G0 F3600 X51.812 Y238.488
G1 F1800 X31.51 Y218.186 E409.3756
G0 F3600 X31.51 Y218.751
G1 F1800 X51.246 Y238.488 E409.83978
G0 F3600 X50.681 Y238.488
G1 F1800 X31.51 Y219.317 E410.29065
G0 F3600 X31.51 Y219.883
G1 F1800 X50.115 Y238.488 E410.72821
G0 F3600 X49.549 Y238.488
G1 F1800 X31.51 Y220.449 E411.15246
G0 F3600 X31.51 Y221.014
G1 F1800 X48.984 Y238.488 E411.56342
G0 F3600 X48.418 Y238.488
G1 F1800 X31.51 Y221.58 E411.96107
G0 F3600 X31.51 Y222.146
G1 F1800 X47.852 Y238.488 E412.34541
G0 F3600 X47.287 Y238.488
G1 F1800 X31.51 Y222.711 E412.71646
G0 F3600 X31.51 Y223.277
G1 F1800 X46.721 Y238.488 E413.0742
G0 F3600 X46.155 Y238.488
G1 F1800 X31.51 Y223.843 E413.41863
G0 F3600 X31.51 Y224.408
G1 F1800 X45.59 Y238.488 E413.74977
G0 F3600 X45.024 Y238.488
G1 F1800 X31.51 Y224.974 E414.0676
G0 F3600 X31.51 Y225.54
G1 F1800 X44.458 Y238.488 E414.37211
G0 F3600 X43.892 Y238.488
G1 F1800 X31.51 Y226.105 E414.66333
G0 F3600 X31.51 Y226.671
G1 F1800 X43.327 Y238.488 E414.94125
G0 F3600 X42.761 Y238.488
G1 F1800 X31.51 Y227.237 E415.20586
G0 F3600 X31.51 Y227.802
G1 F1800 X42.195 Y238.488 E415.45716
G0 F3600 X41.63 Y238.488
G1 F1800 X31.51 Y228.368 E415.69517
G0 F3600 X31.51 Y228.934
G1 F1800 X41.064 Y238.488 E415.91987
G0 F3600 X40.498 Y238.488
G1 F1800 X31.51 Y229.499 E416.13126
G0 F3600 X31.51 Y230.065
G1 F1800 X39.933 Y238.488 E416.32936
G0 F3600 X39.367 Y238.488
G1 F1800 X31.51 Y230.631 E416.51414
G0 F3600 X31.51 Y231.197
G1 F1800 X38.801 Y238.488 E416.68561
G0 F3600 X38.236 Y238.488
G1 F1800 X31.51 Y231.762 E416.8438
G0 F3600 X31.51 Y232.328
G1 F1800 X37.67 Y238.488 E416.98867
G0 F3600 X37.104 Y238.488
G1 F1800 X31.51 Y232.894 E417.12024
G0 F3600 X31.51 Y233.459
G1 F1800 X36.539 Y238.488 E417.23851
G0 F3600 X35.973 Y238.488
G1 F1800 X31.51 Y234.025 E417.34347
G0 F3600 X31.51 Y234.591
G1 F1800 X35.407 Y238.488 E417.43512
G0 F3600 X34.841 Y238.488
G1 F1800 X31.51 Y235.156 E417.51348
G0 F3600 X31.51 Y235.722
G1 F1800 X34.276 Y238.488 E417.57853
G0 F3600 X33.71 Y238.488
G1 F1800 X31.51 Y236.288 E417.63027
G0 F3600 X31.51 Y236.853
G1 F1800 X33.144 Y238.488 E417.66871
G0 F3600 X32.579 Y238.488
G1 F1800 X31.51 Y237.419 E417.69385
G0 F3600 X31.51 Y237.985
G1 F1800 X32.013 Y238.488 E417.70568
G0 F3600 X32.013 Y238.51
G0 X56.111 Y238.438
G0 X57.037 Y214.179
G0 X58.672 Y212.564
G0 X67.372 Y215.992
G0 X71.157 Y214.455
G0 X74.568 Y212.728
G0 X77.286 Y210.028
G0 X77.633 Y209.438
G1 F1800 X60.827 Y192.632 E418.10093
G0 F3600 X61.202 Y192.441
G1 F1800 X77.825 Y209.064 E418.49188
G0 F3600 X78.017 Y208.691
G1 F1800 X61.578 Y192.251 E418.87851
G0 F3600 X61.953 Y192.061
G1 F1800 X78.209 Y208.317 E419.26083
G0 F3600 X78.401 Y207.943
G1 F1800 X62.329 Y191.871 E419.63882
G0 F3600 X62.705 Y191.681
G1 F1800 X78.592 Y207.569 E420.01247
G0 F3600 X78.785 Y207.195
G1 F1800 X63.08 Y191.491 E420.38181
G0 F3600 X63.456 Y191.301
G1 F1800 X78.976 Y206.821 E420.74682
G0 F3600 X79.106 Y206.385
G1 F1800 X63.917 Y191.196 E421.10404
G0 F3600 X64.406 Y191.12
G1 F1800 X79.183 Y205.896 E421.45156
G0 F3600 X79.261 Y205.408
G1 F1800 X64.895 Y191.043 E421.78942
G0 F3600 X65.384 Y190.966
G1 F1800 X79.338 Y204.92 E422.11759
G0 F3600 X79.415 Y204.432
G1 F1800 X65.873 Y190.889 E422.43609
G0 F3600 X66.362 Y190.813
G1 F1800 X79.493 Y203.944 E422.74491
G0 F3600 X79.571 Y203.456
G1 F1800 X66.851 Y190.736 E423.04407
G0 F3600 X67.34 Y190.66
G1 F1800 X79.649 Y202.968 E423.33354
G0 F3600 X79.577 Y202.33
